%
(Header)
(Generated by gcodetools from Inkscape.)
(Using default header. To add your own header create file "header" in the output dir.)
M3
(Header end.)
G21 (All units in mm)

(Start cutting path id: path3811)
(Change tool to Default tool)

G00 Z5.000000
G00 X78.500000 Y129.100000

G01 Z1.000000 F100.0(Penetrate)
G03 X73.032648 Y126.546832 Z1.000000 I3.520756 J-14.669818 F400.000000
G03 X66.500000 Y120.300000 Z1.000000 I21.629888 J-29.158726
G03 X62.750749 Y114.795582 Z1.000000 I31.070356 J-25.192181
G03 X62.900000 Y113.700000 Z1.000000 I0.795206 J-0.449627
G03 X63.995963 Y113.247885 Z1.000000 I1.091518 J1.091518
G03 X79.600000 Y113.800000 Z1.000000 I-0.692021 J240.336968
G02 X95.363131 Y114.670433 Z1.000000 I39.663587 J-575.122009
G02 X95.800000 Y114.500000 Z1.000000 I0.024196 J-0.583107
G02 X95.747127 Y112.936998 Z1.000000 I-0.704384 J-0.758568
G02 X84.300000 Y105.200000 Z1.000000 I-50.392938 J62.221218
G03 X62.575404 Y92.146290 Z1.000000 I209.644794 J-373.505092
G03 X62.700000 Y91.300000 Z1.000000 I0.253539 J-0.394989
G03 X63.940059 Y91.294942 Z1.000000 I0.625998 J1.460662
G03 X71.200000 Y94.800000 Z1.000000 I-29.371565 J70.107795
G02 X78.637570 Y98.552379 Z1.000000 I56.415292 J-102.573258
G02 X87.500000 Y102.400000 Z1.000000 I91.581471 J-198.814030
G03 X96.053906 Y106.794367 Z1.000000 I-23.577518 J56.417633
G03 X98.700000 Y109.300000 Z1.000000 I-4.706817 J7.620701
G03 X109.322457 Y126.279584 Z1.000000 I-184.416366 J127.183700
G03 X109.300000 Y128.000000 Z1.000000 I-1.488271 J0.840928
G03 X107.958308 Y128.821488 Z1.000000 I-1.558486 J-1.038991
G03 X94.900000 Y129.700000 Z1.000000 I-15.517933 J-133.171049
G03 X81.597661 Y129.505502 Z1.000000 I0.000000 J-454.991442
G03 X78.500000 Y129.100000 Z1.000000 I0.453270 J-15.496958
G01 X78.500000 Y129.100000 Z1.000000
G00 Z5.000000

(End cutting path id: path3811)


(Start cutting path id: path3809)
(Change tool to Default tool)

G00 Z5.000000
G00 X163.000000 Y183.100000

G01 Z1.000000 F100.0(Penetrate)
G03 X153.607278 Y179.399222 Z1.000000 I222.237237 J-577.816817 F400.000000
G03 X152.500000 Y178.900000 Z1.000000 I5.670345 J-14.054468
G02 X151.494653 Y178.355503 Z1.000000 I-2.012779 J2.515974
G02 X141.000000 Y175.000000 Z1.000000 I-201.658167 J612.615819
G03 X106.383825 Y162.717542 Z1.000000 I114.909401 J-378.775433
G03 X105.400000 Y160.400000 Z1.000000 I0.674846 J-1.654074
G02 X105.833478 Y158.829561 Z1.000000 I-14.745163 J-4.915054
G02 X106.000000 Y157.300000 Z1.000000 I-6.941502 J-1.529561
G03 X106.506346 Y156.527756 Z1.000000 I0.842060 J0.000000
G03 X107.800000 Y156.500000 Z1.000000 I0.680721 J1.565869
G02 X109.464632 Y157.162786 Z1.000000 I9.258798 J-20.832296
G02 X126.000000 Y162.900000 Z1.000000 I516.865619 J-1462.974169
G03 X161.874753 Y175.360908 Z1.000000 I-2828.876337 J8202.160997
G03 X169.962500 Y178.525000 Z1.000000 I-39.377104 J112.570573
G03 X174.391943 Y182.156909 Z1.000000 I-4.161573 J9.592425
G03 X175.000000 Y184.100000 Z1.000000 I-2.800618 J1.943091
G03 X174.515101 Y186.495549 Z1.000000 I-6.159813 J0.000000
G03 X173.800000 Y186.900000 Z1.000000 I-0.619937 J-0.261694
G03 X172.551234 Y186.596653 Z1.000000 I0.944040 J-6.608279
G03 X163.000000 Y183.100000 Z1.000000 I102.912775 J-295.903075
G01 X163.000000 Y183.100000 Z1.000000
G00 Z5.000000

(End cutting path id: path3809)


(Start cutting path id: path3807)
(Change tool to Default tool)

G00 Z5.000000
G00 X334.200000 Y187.300000

G01 Z1.000000 F100.0(Penetrate)
G03 X327.213392 Y170.840318 Z1.000000 I101.668877 J-52.867816 F400.000000
G03 X326.000000 Y163.400000 Z1.000000 I22.204690 J-7.440318
G03 X327.919811 Y158.829671 Z1.000000 I6.400000 J-0.000000
G03 X332.400000 Y157.000000 Z1.000000 I4.480189 J4.570329
G03 X337.865831 Y158.912499 Z1.000000 I-0.000000 J8.766792
G03 X342.400000 Y165.100000 Z1.000000 I-9.122749 J11.440161
G03 X343.370783 Y169.364314 Z1.000000 I-13.012443 J5.204977
G03 X343.000000 Y174.000000 Z1.000000 I-15.840996 J1.065637
G03 X341.133545 Y178.085209 Z1.000000 I-10.919277 J-2.519833
G03 X338.400000 Y180.300000 Z1.000000 I-5.537525 J-4.040242
G02 X335.915946 Y183.174316 Z1.000000 I2.210426 J4.420851
G02 X336.000000 Y187.600000 Z1.000000 I6.353199 J2.092979
G03 X336.734917 Y190.432011 Z1.000000 I-12.444446 J4.740741
G03 X336.525000 Y190.637500 Z1.000000 I-0.180014 J0.026071
G03 X336.078708 Y190.361406 Z1.000000 I0.113778 J-0.682668
G03 X334.200000 Y187.300000 Z1.000000 I18.770240 J-13.625984
G01 X334.200000 Y187.300000 Z1.000000
G00 Z5.000000

(End cutting path id: path3807)


(Start cutting path id: path3807)
(Change tool to Default tool)

G00 Z5.000000
G00 X336.400000 Y171.400000

G01 Z1.000000 F100.0(Penetrate)
G02 X338.163400 Y168.787243 Z1.000000 I-0.975065 J-2.559544 F400.000000
G02 X336.400000 Y164.500000 Z1.000000 I-6.395493 J0.124275
G02 X331.790118 Y163.063079 Z1.000000 I-3.747928 J3.910882
G02 X329.200000 Y165.700000 Z1.000000 I0.496078 J3.077807
G02 X331.127734 Y170.578571 Z1.000000 I5.183346 J0.771988
G02 X336.400000 Y171.400000 Z1.000000 I3.360562 J-4.238965
G01 X336.400000 Y171.400000 Z1.000000
G00 Z5.000000

(End cutting path id: path3807)


(Start cutting path id: path3805)
(Change tool to Default tool)

G00 Z5.000000
G00 X397.400000 Y212.200000

G01 Z1.000000 F100.0(Penetrate)
G03 X389.770965 Y201.808170 Z1.000000 I12.362578 J-17.072132 F400.000000
G03 X391.600000 Y194.700000 Z1.000000 I6.406759 J-2.140852
G02 X393.000143 Y192.125852 Z1.000000 I-3.350854 J-3.490473
G02 X392.500000 Y189.700000 Z1.000000 I-3.168799 J-0.611166
G03 X391.189163 Y186.972777 Z1.000000 I14.064699 J-8.438819
G03 X391.200000 Y186.100000 Z1.000000 I1.136931 J-0.422339
G03 X391.885430 Y185.861480 Z1.000000 I0.434631 J0.144877
G03 X402.500000 Y193.187500 Z1.000000 I-142.235295 J217.435432
G03 X412.887792 Y201.117460 Z1.000000 I-166.516339 J228.895525
G03 X413.800000 Y202.600000 Z1.000000 I-1.612436 J2.014044
G03 X413.376730 Y203.123580 Z1.000000 I-0.423270 J0.090701
G03 X411.300000 Y202.600000 Z1.000000 I0.000000 J-4.380364
G03 X408.634500 Y201.035393 Z1.000000 I17.813432 J-33.400184
G03 X405.100000 Y198.600000 Z1.000000 I36.635541 J-56.951878
G02 X399.654393 Y196.756629 Z1.000000 I-5.531308 J7.375077
G02 X397.400000 Y198.500000 Z1.000000 I-0.021398 J2.301620
G02 X398.227146 Y202.358560 Z1.000000 I4.345568 J1.086392
G02 X401.400000 Y203.400000 Z1.000000 I2.370358 J-1.867608
G03 X405.916909 Y204.914364 Z1.000000 I1.054277 J4.348893
G03 X407.800000 Y211.100000 Z1.000000 I-6.572563 J5.380335
G03 X406.652840 Y213.690641 Z1.000000 I-4.519443 J-0.451944
G03 X404.500000 Y214.800000 Z1.000000 I-2.545879 J-2.296976
G03 X401.634698 Y214.432498 Z1.000000 I-0.620532 J-6.515591
G03 X397.400000 Y212.200000 Z1.000000 I6.095582 J-16.694890
G01 X397.400000 Y212.200000 Z1.000000
G00 Z5.000000

(End cutting path id: path3805)


(Start cutting path id: path3803)
(Change tool to Default tool)

G00 Z5.000000
G00 X309.200000 Y314.800000

G01 Z1.000000 F100.0(Penetrate)
G03 X308.250020 Y313.437860 Z1.000000 I3.345649 J-3.345649 F400.000000
G03 X308.000000 Y312.300000 Z1.000000 I2.464231 J-1.137860
G02 X307.761433 Y310.953943 Z1.000000 I-3.916682 J0.000000
G02 X306.100000 Y307.200000 Z1.000000 I-29.295796 J10.721199
G03 X303.144164 Y298.657304 Z1.000000 I31.058098 J-15.529049
G03 X302.000000 Y287.400000 Z1.000000 I54.807593 J-11.257304
G03 X303.244867 Y283.140651 Z1.000000 I8.303784 J0.115330
G03 X305.137500 Y282.150000 Z1.000000 I1.784425 J1.105876
G03 X307.708568 Y283.062723 Z1.000000 I-0.246261 J4.771304
G03 X313.000000 Y288.000000 Z1.000000 I-17.807616 J24.389107
G03 X316.208243 Y292.348538 Z1.000000 I-35.138306 J29.281922
G03 X316.650000 Y293.437500 Z1.000000 I-2.592921 J1.685948
G03 X316.359455 Y293.644809 Z1.000000 I-0.192247 J0.037819
G03 X313.700000 Y291.600000 Z1.000000 I6.495369 J-11.199633
G02 X309.475548 Y289.739102 Z1.000000 I-4.507817 J4.507817
G02 X306.900000 Y291.300000 Z1.000000 I-0.120427 J2.706622
G02 X306.497024 Y294.313052 Z1.000000 I5.093936 J2.214755
G02 X309.900000 Y311.500000 Z1.000000 I169.227983 J-24.576387
G03 X310.605866 Y314.726100 Z1.000000 I-54.173047 J13.543262
G03 X310.600000 Y315.437500 Z1.000000 I-1.812655 J0.340777
G03 X310.291102 Y315.587408 Z1.000000 I-0.211921 J-0.043471
G03 X309.200000 Y314.800000 Z1.000000 I1.889719 J-3.768230
G01 X309.200000 Y314.800000 Z1.000000
G00 Z5.000000

(End cutting path id: path3803)


(Start cutting path id: path3801)
(Change tool to Default tool)

G00 Z5.000000
G00 X232.600000 Y314.900000

G01 Z1.000000 F100.0(Penetrate)
G03 X229.444826 Y303.789873 Z1.000000 I87.063800 J-30.728400 F400.000000
G03 X227.500000 Y291.700000 Z1.000000 I109.588614 J-23.830235
G03 X227.629375 Y283.473586 Z1.000000 I35.551171 J-3.555117
G03 X228.850000 Y280.312500 Z1.000000 I7.142991 J0.941992
G03 X231.032760 Y279.350084 Z1.000000 I1.876890 J1.300329
G03 X234.700000 Y281.300000 Z1.000000 I-0.801787 J5.931413
G03 X238.364725 Y286.121239 Z1.000000 I-25.256342 J23.001311
G03 X239.537500 Y288.625000 Z1.000000 I-9.528737 J5.989860
G03 X239.096925 Y289.285177 Z1.000000 I-0.480406 J0.156496
G03 X237.100000 Y288.600000 Z1.000000 I-0.209038 J-2.643339
G02 X233.114163 Y287.664258 Z1.000000 I-2.867843 J3.258913
G02 X230.400000 Y290.400000 Z1.000000 I0.983482 J3.689973
G02 X230.256749 Y292.600244 Z1.000000 I5.975260 J1.493815
G02 X232.000000 Y303.900000 Z1.000000 I149.021032 J-17.205621
G03 X233.818573 Y315.054908 Z1.000000 I-187.607992 J36.311224
G03 X233.600000 Y315.700000 Z1.000000 I-0.762414 J0.101250
G03 X233.174783 Y315.736921 Z1.000000 I-0.234580 J-0.234580
G03 X232.600000 Y314.900000 Z1.000000 I0.835154 J-1.189405
G01 X232.600000 Y314.900000 Z1.000000
G00 Z5.000000

(End cutting path id: path3801)


(Start cutting path id: path3799)
(Change tool to Default tool)

G00 Z5.000000
G00 X178.500000 Y326.300000

G01 Z1.000000 F100.0(Penetrate)
G03 X177.718349 Y324.935439 Z1.000000 I1.338134 J-1.672667 F400.000000
G03 X177.225000 Y319.025000 Z1.000000 I48.092443 J-6.990123
G03 X177.443169 Y313.113450 Z1.000000 I50.057660 J-1.112392
G03 X178.200000 Y311.300000 Z1.000000 I3.316154 J0.319320
G02 X178.237520 Y309.876289 Z1.000000 I-0.958907 J-0.737621
G02 X173.600000 Y304.600000 Z1.000000 I-24.561590 J16.911880
G03 X168.686271 Y299.167982 Z1.000000 I22.719640 J-25.490328
G03 X168.100000 Y297.000000 Z1.000000 I2.554092 J-1.853946
G03 X170.855747 Y294.473106 Z1.000000 I2.918732 J0.416962
G03 X181.000000 Y296.300000 Z1.000000 I1.231328 J22.240369
G02 X186.547161 Y298.421785 Z1.000000 I27.102498 J-62.544227
G02 X190.300000 Y299.400000 Z1.000000 I9.191387 J-27.574160
G03 X193.606958 Y300.410015 Z1.000000 I-3.429516 J17.147579
G03 X194.000000 Y301.000000 Z1.000000 I-0.246284 J0.589985
G03 X193.289310 Y301.614876 Z1.000000 I-0.621335 J0.000000
G03 X184.800000 Y299.600000 Z1.000000 I7.080845 J-48.725343
G02 X172.869309 Y296.669634 Z1.000000 I-27.616301 J86.684501
G02 X172.000000 Y297.400000 Z1.000000 I-0.127839 J0.730366
G02 X172.443484 Y298.679370 Z1.000000 I2.067116 J-0.000000
G02 X176.100000 Y302.700000 Z1.000000 I30.237720 J-23.826346
G03 X180.209432 Y306.552051 Z1.000000 I-144.891427 J158.690610
G03 X181.900000 Y308.300000 Z1.000000 I-23.491050 J24.411405
G02 X183.700319 Y309.457808 Z1.000000 I3.565439 J-3.565439
G02 X186.700000 Y310.000000 Z1.000000 I2.999681 J-8.026782
G03 X195.276122 Y316.580319 Z1.000000 I-0.000000 J8.878785
G03 X190.800000 Y324.900000 Z1.000000 I-6.654834 J1.783546
G03 X180.965339 Y327.028949 Z1.000000 I-15.273076 J-46.773795
G03 X178.500000 Y326.300000 Z1.000000 I-0.366362 J-3.294365
G01 X178.500000 Y326.300000 Z1.000000
G00 Z5.000000

(End cutting path id: path3799)


(Start cutting path id: path3799)
(Change tool to Default tool)

G00 Z5.000000
G00 X183.300000 Y316.900000

G01 Z1.000000 F100.0(Penetrate)
G02 X181.427993 Y314.744531 Z1.000000 I-3.200612 J0.889059 F400.000000
G02 X179.600000 Y315.300000 Z1.000000 I-0.588562 J1.348705
G02 X179.297282 Y316.764502 Z1.000000 I1.547827 J1.083479
G02 X180.400000 Y319.500000 Z1.000000 I8.062256 J-1.660000
G02 X182.323552 Y321.357909 Z1.000000 I4.854954 J-3.101776
G02 X183.125000 Y321.275000 Z1.000000 I0.344683 J-0.583175
G02 X183.585801 Y320.319577 Z1.000000 I-0.960675 J-1.052167
G02 X183.300000 Y316.900000 Z1.000000 I-11.354288 J-0.772765
G01 X183.300000 Y316.900000 Z1.000000
G00 Z5.000000

(End cutting path id: path3799)


(Start cutting path id: path3799)
(Change tool to Default tool)

G00 Z5.000000
G00 X189.800000 Y317.100000

G01 Z1.000000 F100.0(Penetrate)
G02 X189.126780 Y313.278241 Z1.000000 I-5.503702 J-1.000673 F400.000000
G02 X186.900000 Y312.000000 Z1.000000 I-2.226780 J1.300479
G02 X186.343275 Y312.450458 Z1.000000 I0.000000 J0.569260
G02 X186.012500 Y315.287500 Z1.000000 I14.852975 J3.169533
G02 X186.176741 Y318.273380 Z1.000000 I19.471819 J0.426390
G02 X186.700000 Y319.400000 Z1.000000 I2.063431 J-0.273537
G02 X188.381728 Y319.521715 Z1.000000 I0.911218 J-0.911218
G02 X189.800000 Y317.100000 Z1.000000 I-2.154037 J-2.887669
G01 X189.800000 Y317.100000 Z1.000000
G00 Z5.000000

(End cutting path id: path3799)


(Start cutting path id: path3797)
(Change tool to Default tool)

G00 Z5.000000
G00 X212.200000 Y382.000000

G01 Z1.000000 F100.0(Penetrate)
G03 X207.081660 Y376.083645 Z1.000000 I6.452700 J-10.754500 F400.000000
G03 X207.100000 Y369.800000 Z1.000000 I7.462045 J-3.120071
G03 X208.574346 Y367.224757 Z1.000000 I8.656177 J3.246066
G03 X210.100000 Y365.900000 Z1.000000 I4.517564 J3.661759
G02 X211.604719 Y364.688854 Z1.000000 I-1.608485 J-3.538668
G02 X212.000000 Y363.500000 Z1.000000 I-1.590165 J-1.188854
G02 X210.176186 Y359.652067 Z1.000000 I-4.971144 J0.000000
G02 X194.500000 Y349.100000 Z1.000000 I-64.335575 J78.656812
G03 X173.297907 Y336.592187 Z1.000000 I178.276335 J-326.421458
G03 X171.600000 Y334.500000 Z1.000000 I2.276605 J-3.582629
G03 X171.943741 Y334.198662 Z1.000000 I0.228753 J-0.085782
G03 X177.300000 Y337.500000 Z1.000000 I-23.780089 J44.577830
G02 X183.745308 Y341.209294 Z1.000000 I28.936585 J-42.826145
G02 X194.200000 Y345.600000 Z1.000000 I46.922193 J-97.084081
G03 X208.032875 Y352.616573 Z1.000000 I-19.113094 J54.824401
G03 X215.200000 Y360.000000 Z1.000000 I-14.925872 J21.658901
G02 X217.074295 Y361.381912 Z1.000000 I2.786432 J-1.817238
G02 X219.100000 Y361.100000 Z1.000000 I0.693815 J-2.433427
G03 X221.171443 Y360.688445 Z1.000000 I1.609597 J2.682662
G03 X222.700000 Y361.600000 Z1.000000 I-0.345897 J2.317395
G03 X223.487557 Y364.750871 Z1.000000 I-3.561018 J2.563933
G03 X222.000000 Y366.500000 Z1.000000 I-2.106430 J-0.284310
G02 X220.819922 Y367.974512 Z1.000000 I0.486633 J1.598936
G02 X221.400000 Y375.300000 Z1.000000 I23.958293 J1.788542
G03 X222.016880 Y380.798482 Z1.000000 I-21.781285 J5.227508
G03 X221.300000 Y382.500000 Z1.000000 I-2.448014 J-0.029616
G03 X217.967425 Y383.814998 Z1.000000 I-3.085112 J-2.938202
G03 X212.200000 Y382.000000 Z1.000000 I0.718862 J-12.355214
G01 X212.200000 Y382.000000 Z1.000000
G00 Z5.000000

(End cutting path id: path3797)


(Start cutting path id: path3797)
(Change tool to Default tool)

G00 Z5.000000
G00 X216.600000 Y371.500000

G01 Z1.000000 F100.0(Penetrate)
G02 X214.325417 Y370.089793 Z1.000000 I-2.010772 J0.703770 F400.000000
G02 X212.200000 Y372.100000 Z1.000000 I0.306030 J2.452288
G02 X212.356119 Y373.568708 Z1.000000 I2.260606 J0.502357
G02 X213.700000 Y375.500000 Z1.000000 I6.056008 J-2.780835
G02 X215.156105 Y376.034283 Z1.000000 I1.261840 J-1.187614
G02 X216.300000 Y375.200000 Z1.000000 I-0.160338 J-1.421188
G02 X216.845797 Y373.090467 Z1.000000 I-7.125414 J-2.968923
G02 X216.600000 Y371.500000 Z1.000000 I-3.054437 J-0.342182
G01 X216.600000 Y371.500000 Z1.000000
G00 Z5.000000

(End cutting path id: path3797)


(Start cutting path id: path3795)
(Change tool to Default tool)

G00 Z5.000000
G00 X301.800000 Y387.000000

G01 Z1.000000 F100.0(Penetrate)
G03 X298.647597 Y383.263253 Z1.000000 I6.018494 J-8.275429 F400.000000
G03 X293.600000 Y370.700000 Z1.000000 I78.341523 J-38.771262
G02 X291.907992 Y370.128725 Z1.000000 I-1.052754 J0.326717
G02 X289.800000 Y373.400000 Z1.000000 I3.044396 J4.276620
G03 X286.966261 Y381.028812 Z1.000000 I-28.660559 J-6.305323
G03 X284.000000 Y384.000000 Z1.000000 I-6.464990 J-3.488004
G03 X278.619962 Y383.816175 Z1.000000 I-2.530413 J-4.763131
G03 X276.000000 Y379.100000 Z1.000000 I2.934796 J-4.716175
G03 X277.839927 Y375.515737 Z1.000000 I4.411118 J0.000000
G03 X282.400000 Y374.500000 Z1.000000 I3.470915 J4.838486
G02 X285.252867 Y374.124083 Z1.000000 I0.895144 J-4.219962
G02 X286.600000 Y372.400000 Z1.000000 I-1.174404 J-2.305976
G03 X290.681350 Y356.517620 Z1.000000 I271.620443 J61.333648
G03 X291.400000 Y355.300000 Z1.000000 I2.721835 J0.785565
G03 X291.771084 Y355.376839 Z1.000000 I0.160304 J0.160304
G03 X293.000000 Y359.200000 Z1.000000 I-28.293711 J11.203818
G02 X298.896721 Y372.910036 Z1.000000 I52.665284 J-14.528354
G02 X302.600000 Y375.000000 Z1.000000 I3.703279 J-2.236003
G03 X309.017429 Y378.813132 Z1.000000 I-0.000000 J7.306773
G03 X309.000000 Y386.900000 Z1.000000 I-7.398084 J4.027508
G03 X306.315814 Y388.545266 Z1.000000 I-2.755909 J-1.483951
G03 X301.800000 Y387.000000 Z1.000000 I-0.158339 J-6.908311
G01 X301.800000 Y387.000000 Z1.000000
G00 Z5.000000

(End cutting path id: path3795)


(Start cutting path id: path3793)
(Change tool to Default tool)

G00 Z5.000000
G00 X242.100000 Y418.400000

G01 Z1.000000 F100.0(Penetrate)
G01 X237.800000 Y410.900000 Z1.000000 F400.000000
G01 X239.900000 Y399.700000 Z1.000000
G03 X242.169655 Y388.513456 Z1.000000 I623.293484 J120.637451
G02 X243.100000 Y384.000000 Z1.000000 I-383.046384 J-81.308804
G02 X243.760897 Y379.416838 Z1.000000 I-24.418159 J-5.860358
G02 X245.000000 Y348.500000 Z1.000000 I-1427.261681 J-72.685867
G03 X246.384259 Y315.922777 Z1.000000 I1306.317984 J39.189540
G03 X249.400000 Y269.500000 Z1.000000 I2338.874340 J128.629859
G02 X250.823275 Y249.454096 Z1.000000 I-5834.632974 J-424.336946
G02 X251.500000 Y237.800000 Z1.000000 I-521.695276 J-36.140283
G01 X252.100000 Y226.100000 Z1.000000
G01 X248.900000 Y224.500000 Z1.000000
G02 X245.521164 Y223.426183 Z1.000000 I-4.500704 J8.308993
G02 X238.400000 Y223.200000 Z1.000000 I-4.853472 J40.592281
G02 X231.515990 Y224.389580 Z1.000000 I1.348407 J28.316557
G02 X227.300000 Y226.600000 Z1.000000 I3.693458 J12.170466
G02 X221.190412 Y233.217262 Z1.000000 I21.745989 J26.206705
G02 X216.400000 Y242.400000 Z1.000000 I32.168015 J22.622166
G02 X214.959967 Y248.928119 Z1.000000 I21.692801 J8.208087
G02 X214.337500 Y266.387500 Z1.000000 I236.426805 J17.169944
G02 X214.969831 Y283.773071 Z1.000000 I247.632270 J-0.302359
G02 X216.400000 Y291.500000 Z1.000000 I35.212332 J-2.521593
G03 X218.915568 Y300.737363 Z1.000000 I-118.235488 J37.159725
G03 X221.000000 Y311.500000 Z1.000000 I-148.622617 J34.367355
G03 X220.173886 Y319.911248 Z1.000000 I-17.003099 J2.576227
G03 X217.200000 Y322.000000 Z1.000000 I-2.973886 J-1.072678
G03 X212.453080 Y320.294979 Z1.000000 I0.000000 J-7.460423
G03 X204.600000 Y311.600000 Z1.000000 I25.523634 J-30.946122
G02 X200.779772 Y306.202963 Z1.000000 I-98.383158 J65.588772
G02 X200.000000 Y305.500000 Z1.000000 I-2.186239 J1.641150
G03 X195.427539 Y299.854814 Z1.000000 I5.656400 J-9.255928
G03 X180.500000 Y250.300000 Z1.000000 I522.109622 J-184.302320
G02 X176.254673 Y235.429432 Z1.000000 I-272.022933 J69.617243
G02 X173.950000 Y230.325000 Z1.000000 I-22.593666 J7.128637
G02 X170.369919 Y227.115842 Z1.000000 I-7.025410 J4.235909
G02 X165.900000 Y226.100000 Z1.000000 I-4.618514 J9.980222
G02 X161.548660 Y226.784976 Z1.000000 I-0.326706 J12.088106
G02 X157.400000 Y229.100000 Z1.000000 I4.681608 J13.264557
G02 X153.771567 Y232.412443 Z1.000000 I18.334605 J23.727136
G02 X151.300000 Y235.700000 Z1.000000 I14.477890 J13.457232
G02 X146.946371 Y249.343505 Z1.000000 I27.045493 J16.146563
G02 X148.100000 Y277.000000 Z1.000000 I114.076268 J9.093870
G02 X152.052460 Y290.620510 Z1.000000 I58.484947 J-9.587696
G02 X156.900000 Y297.800000 Z1.000000 I20.937874 J-8.910844
G03 X161.525286 Y303.516036 Z1.000000 I-24.784023 J24.784023
G03 X162.112500 Y305.337500 Z1.000000 I-3.084198 J1.999688
G03 X161.454296 Y305.846338 Z1.000000 I-0.506768 J0.024600
G03 X157.200000 Y303.500000 Z1.000000 I3.633165 J-11.617565
G02 X153.008646 Y302.431876 Z1.000000 I-3.223086 J3.889932
G02 X150.200000 Y304.900000 Z1.000000 I0.711132 J3.641383
G02 X149.950628 Y307.527525 Z1.000000 I5.196533 J1.818787
G02 X151.700000 Y314.500000 Z1.000000 I36.190915 J-5.374493
G03 X156.724448 Y331.358189 Z1.000000 I-203.259806 J69.757803
G03 X156.100000 Y331.800000 Z1.000000 I-0.397153 J0.100868
G03 X152.777484 Y328.012825 Z1.000000 I4.540201 J-7.334172
G03 X145.000000 Y307.200000 Z1.000000 I153.167686 J-69.096376
G03 X143.672098 Y296.869430 Z1.000000 I29.477107 J-9.039646
G03 X145.500000 Y294.500000 Z1.000000 I2.590358 J0.108552
G03 X147.000000 Y294.000000 Z1.000000 I7.500000 J20.000000
G02 X148.500000 Y293.500000 Z1.000000 I-6.000000 J-20.500000
G02 X149.242325 Y292.691996 Z1.000000 I-0.241780 J-0.967122
G02 X149.000000 Y290.500000 Z1.000000 I-4.075086 J-0.658892
G03 X145.612119 Y277.766364 Z1.000000 I57.503631 J-22.116781
G03 X143.900000 Y257.900000 Z1.000000 I147.346899 J-22.705583
G03 X145.264261 Y241.347405 Z1.000000 I85.499119 J-1.285701
G03 X149.800000 Y225.700000 Z1.000000 I78.228605 J14.195161
G03 X154.091792 Y217.418821 Z1.000000 I42.524673 J16.786055
G03 X158.100000 Y213.000000 Z1.000000 I16.017492 J10.501804
G03 X163.212146 Y209.349292 Z1.000000 I47.160317 J60.634693
G03 X165.100000 Y208.500000 Z1.000000 I3.635217 J5.557707
G03 X172.109704 Y208.263880 Z1.000000 I3.927801 J12.438037
G03 X179.400000 Y212.000000 Z1.000000 I-4.155595 J17.089660
G03 X184.651633 Y219.747378 Z1.000000 I-12.855346 J14.367739
G03 X190.100000 Y241.500000 Z1.000000 I-100.374246 J36.699319
G02 X195.502330 Y268.099474 Z1.000000 I212.501833 J-29.310598
G02 X201.700000 Y284.500000 Z1.000000 I86.829644 J-23.441155
G02 X206.377676 Y291.294996 Z1.000000 I28.633135 J-14.703502
G02 X208.000000 Y291.500000 Z1.000000 I0.929527 J-0.834191
G02 X208.294983 Y290.799910 Z1.000000 I-0.451972 J-0.602629
G02 X206.800000 Y282.800000 Z1.000000 I-73.401885 J9.577333
G03 X204.499023 Y263.477097 Z1.000000 I87.729845 J-20.245349
G03 X206.300000 Y239.300000 Z1.000000 I143.451343 J-1.469786
G03 X211.089310 Y222.663772 Z1.000000 I76.409597 J12.989631
G03 X217.500000 Y212.200000 Z1.000000 I36.158373 J14.956976
G03 X222.913780 Y207.786518 Z1.000000 I14.373344 J12.103869
G03 X232.600000 Y204.000000 Z1.000000 I19.988227 J36.849178
G03 X237.777769 Y203.425737 Z1.000000 I4.486861 J16.825729
G03 X244.000000 Y204.400000 Z1.000000 I-1.082934 J27.272856
G02 X250.196015 Y205.768045 Z1.000000 I13.032665 J-44.311062
G02 X251.500000 Y205.600000 Z1.000000 I0.356155 J-2.379649
G02 X253.486133 Y203.281263 Z1.000000 I-1.136587 J-2.983540
G02 X255.000000 Y188.900000 Z1.000000 I-67.551806 J-14.381263
G01 X255.000000 Y180.300000 Z1.000000
G01 X250.800000 Y177.500000 Z1.000000
G03 X246.758640 Y174.377512 Z1.000000 I13.661189 J-21.857902
G03 X230.300000 Y158.200000 Z1.000000 I401.805129 J-425.248671
G01 X214.200000 Y141.600000 Z1.000000
G01 X214.100000 Y133.800000 Z1.000000
G02 X213.567003 Y126.180506 Z1.000000 I-54.729037 J-0.000000
G02 X212.800000 Y124.100000 Z1.000000 I-5.181005 J0.728404
G03 X212.589346 Y122.154764 Z1.000000 I1.957014 J-1.195953
G03 X214.500000 Y118.900000 Z1.000000 I9.065712 J3.133681
G03 X226.653261 Y112.177521 Z1.000000 I16.736219 J15.909739
G03 X261.500000 Y109.400000 Z1.000000 I28.915933 J142.796804
G03 X285.497293 Y111.061902 Z1.000000 I-12.974663 J361.437032
G03 X311.500000 Y114.500000 Z1.000000 I-46.150066 J449.087581
G02 X363.924625 Y121.581282 Z1.000000 I162.528890 J-1005.647507
G02 X390.100000 Y123.000000 Z1.000000 I26.175375 J-240.758664
G02 X397.295413 Y122.559697 Z1.000000 I-0.000000 J-59.013722
G02 X399.650000 Y121.212500 Z1.000000 I-0.427248 J-3.477965
G02 X400.652398 Y118.493084 Z1.000000 I-3.886888 J-2.977191
G02 X400.800000 Y109.000000 Z1.000000 I-127.715179 J-6.733456
G01 X400.500000 Y97.600000 Z1.000000
G01 X391.500000 Y96.400000 Z1.000000
G03 X375.401421 Y93.972320 Z1.000000 I37.595073 J-303.893504
G03 X358.000000 Y90.500000 Z1.000000 I75.179358 J-422.098453
G02 X338.881681 Y87.289423 Z1.000000 I-39.330085 J175.674378
G02 X296.000000 Y83.600000 Z1.000000 I-90.555036 J801.460573
G03 X287.484414 Y82.967495 Z1.000000 I26.159691 J-409.835159
G03 X277.500000 Y82.000000 Z1.000000 I35.110053 J-414.333445
G02 X250.432734 Y80.512609 Z1.000000 I-27.067266 J245.538768
G02 X227.600000 Y82.000000 Z1.000000 I-0.000000 J175.994717
G02 X194.132694 Y89.807946 Z1.000000 I23.533619 J176.502145
G02 X179.300000 Y98.300000 Z1.000000 I14.181406 J41.969862
G02 X175.382898 Y102.614893 Z1.000000 I21.493478 J23.447430
G02 X171.800000 Y108.400000 Z1.000000 I29.954453 J22.553783
G02 X169.476175 Y114.731597 Z1.000000 I22.273135 J11.766939
G02 X167.400000 Y128.000000 Z1.000000 I105.372437 J23.284799
G03 X165.861124 Y141.387054 Z1.000000 I-200.226734 J-16.234600
G03 X165.100000 Y144.200000 Z1.000000 I-12.424176 J-1.852276
G03 X163.071178 Y146.625462 Z1.000000 I-4.593701 J-1.781231
G03 X161.025000 Y146.787500 Z1.000000 I-1.183178 J-1.940545
G03 X158.914235 Y145.255066 Z1.000000 I2.096279 J-5.107298
G03 X155.600000 Y140.300000 Z1.000000 I19.825311 J-16.846222
G02 X153.719202 Y137.366761 Z1.000000 I-18.513350 J9.801185
G02 X148.400000 Y131.100000 Z1.000000 I-64.822174 J49.629970
G02 X142.263922 Y126.131813 Z1.000000 I-19.526060 J17.842779
G02 X138.100000 Y125.000000 Z1.000000 I-4.163922 J7.093593
G02 X129.061813 Y127.939072 Z1.000000 I-0.000000 J15.366580
G02 X126.000000 Y133.800000 Z1.000000 I4.375175 J6.015865
G03 X125.409460 Y135.612236 Z1.000000 I-3.075946 J0.000000
G03 X124.662500 Y135.725000 Z1.000000 I-0.429240 J-0.312981
G03 X123.614064 Y134.588427 Z1.000000 I2.519133 J-3.375639
G03 X121.300000 Y130.300000 Z1.000000 I31.457255 J-19.743099
G03 X119.337607 Y121.011672 Z1.000000 I20.673499 J-9.219263
G03 X121.400000 Y104.700000 Z1.000000 I67.157140 J0.204906
G02 X123.547998 Y93.878706 Z1.000000 I-80.576077 J-21.617972
G02 X123.800000 Y87.000000 Z1.000000 I-36.685073 J-4.787928
G02 X122.244852 Y80.540054 Z1.000000 I-18.784552 J1.104974
G02 X118.500000 Y75.000000 Z1.000000 I-17.036288 J7.480128
G02 X113.289517 Y70.129885 Z1.000000 I-74.723615 J74.723615
G02 X109.500000 Y67.200000 Z1.000000 I-26.388486 J30.215270
G03 X105.637330 Y64.458206 Z1.000000 I25.162002 J-39.540289
G03 X103.000000 Y62.200000 Z1.000000 I26.705549 J-33.858230
G02 X97.052791 Y57.392700 Z1.000000 I-29.409325 J30.300517
G02 X87.500000 Y51.800000 Z1.000000 I-51.741963 J77.424703
G02 X73.435279 Y46.446598 Z1.000000 I-29.974553 J57.598161
G02 X60.200000 Y44.800000 Z1.000000 I-13.235279 J52.368968
G02 X52.956847 Y45.605685 Z1.000000 I0.659089 J38.886246
G02 X47.500000 Y47.500000 Z1.000000 I4.543528 J21.895066
G02 X43.048145 Y50.835925 Z1.000000 I6.542693 J13.369852
G02 X39.900000 Y55.800000 Z1.000000 I12.499173 J11.407088
G02 X37.784551 Y65.784904 Z1.000000 I24.307571 J10.366464
G02 X39.400000 Y85.500000 Z1.000000 I102.964479 J1.486853
G02 X41.971386 Y93.902245 Z1.000000 I36.046129 J-6.436809
G02 X45.000000 Y98.000000 Z1.000000 I10.710240 J-4.747753
G03 X55.687701 Y109.798619 Z1.000000 I-50.374245 J56.371179
G03 X55.000000 Y111.800000 Z1.000000 I-1.042170 J0.760739
G03 X54.148337 Y111.723338 Z1.000000 I-0.350424 J-0.876060
G03 X49.800000 Y108.500000 Z1.000000 I18.487225 J-29.484234
G02 X45.371192 Y105.506673 Z1.000000 I-16.510802 J19.655717
G02 X43.500000 Y105.200000 Z1.000000 I-1.386796 J2.599704
G02 X42.310762 Y106.166255 Z1.000000 I0.273894 J1.552067
G02 X41.800000 Y109.600000 Z1.000000 I6.973855 J2.792206
G02 X44.025847 Y121.470859 Z1.000000 I43.252954 J-1.966043
G02 X49.500000 Y132.700000 Z1.000000 I46.254098 J-15.599770
G03 X50.367841 Y134.663283 Z1.000000 I-4.688698 J3.246022
G03 X50.100000 Y135.000000 Z1.000000 I-0.267841 J0.061832
G03 X47.953150 Y133.842397 Z1.000000 I0.000000 J-2.569537
G03 X39.800000 Y119.400000 Z1.000000 I102.230078 J-67.234375
G03 X36.638021 Y110.307810 Z1.000000 I41.731881 J-19.608956
G03 X35.800000 Y102.600000 Z1.000000 I31.062777 J-7.276718
G02 X35.181260 Y94.788347 Z1.000000 I-41.653030 J-0.631107
G02 X32.500000 Y84.100000 Z1.000000 I-74.871923 J13.101758
G03 X28.216941 Y60.032918 Z1.000000 I81.866247 J-26.983847
G03 X31.000000 Y43.100000 Z1.000000 I43.867358 J-1.485221
G03 X36.799841 Y31.936096 Z1.000000 I49.049576 J18.393591
G03 X42.400000 Y26.400000 Z1.000000 I17.066595 J11.663558
G03 X51.274007 Y23.229737 Z1.000000 I11.458630 J18.069379
G03 X64.700000 Y23.800000 Z1.000000 I4.985095 J40.965987
G03 X90.978750 Y33.329456 Z1.000000 I-18.466511 J91.922190
G03 X118.200000 Y52.900000 Z1.000000 I-63.752008 J117.391252
G03 X126.862250 Y63.672148 Z1.000000 I-32.651357 J35.124944
G03 X131.000000 Y74.500000 Z1.000000 I-29.926939 J17.640789
G02 X132.244799 Y80.485802 Z1.000000 I119.444715 J-21.717221
G02 X133.600000 Y85.800000 Z1.000000 I137.101778 J-32.133133
G03 X134.591298 Y91.036616 Z1.000000 I-32.509426 J8.866207
G03 X134.200000 Y92.300000 Z1.000000 I-1.655934 J0.179410
G02 X133.647804 Y93.654600 Z1.000000 I2.575813 J1.839867
G02 X133.400000 Y98.000000 Z1.000000 I22.217793 J3.446776
G02 X134.591514 Y101.820600 Z1.000000 I7.262728 J-0.168901
G02 X137.800000 Y104.700000 Z1.000000 I7.059248 J-4.638755
G03 X143.483356 Y108.796331 Z1.000000 I-9.779687 J19.559373
G03 X148.200000 Y115.100000 Z1.000000 I-19.528045 J19.528045
G02 X154.881943 Y124.451012 Z1.000000 I36.203376 J-18.806948
G02 X158.500000 Y126.000000 Z1.000000 I3.618057 J-3.450954
G02 X160.044844 Y125.015114 Z1.000000 I0.000000 J-1.704027
G02 X161.000000 Y120.700000 Z1.000000 I-9.269635 J-4.315114
G03 X162.265455 Y102.325300 Z1.000000 I134.035186 J0.000000
G03 X165.000000 Y91.400000 Z1.000000 I51.875763 J7.179359
G03 X171.276228 Y79.860228 Z1.000000 I49.278804 J19.325021
G03 X178.200000 Y73.400000 Z1.000000 I19.605073 J14.071401
G03 X181.666996 Y71.620060 Z1.000000 I9.527355 J14.291033
G03 X187.000000 Y70.000000 Z1.000000 I14.980019 J39.724289
G02 X192.438701 Y68.661135 Z1.000000 I-52.410394 J-224.615973
G02 X199.000000 Y66.900000 Z1.000000 I-97.754920 J-377.299523
G03 X222.536969 Y63.116717 Z1.000000 I28.802322 J104.081119
G03 X263.000000 Y63.800000 Z1.000000 I15.035873 J308.020242
G03 X329.373059 Y70.086821 Z1.000000 I-213.369953 J2606.161569
G03 X339.500000 Y72.000000 Z1.000000 I-6.938758 J64.487410
G02 X342.606796 Y72.704920 Z1.000000 I7.146548 J-24.298262
G02 X348.000000 Y73.500000 Z1.000000 I31.466921 J-194.757796
G03 X365.552542 Y75.906410 Z1.000000 I-42.791047 J377.339233
G03 X382.500000 Y79.000000 Z1.000000 I-65.258107 J405.468198
G02 X391.531911 Y80.668852 Z1.000000 I61.339377 J-306.696887
G02 X397.100000 Y81.500000 Z1.000000 I23.714195 J-139.801174
G01 X402.600000 Y82.200000 Z1.000000
G01 X403.800000 Y54.900000 Z1.000000
G03 X405.497888 Y27.573119 Z1.000000 I869.493398 J40.307641
G03 X405.900000 Y26.700000 Z1.000000 I1.383020 J0.107790
G03 X407.018501 Y26.985333 Z1.000000 I0.474579 J0.474579
G03 X410.600000 Y42.500000 Z1.000000 I-129.590914 J38.086263
G02 X412.571129 Y52.318402 Z1.000000 I137.573980 J-22.512106
G02 X413.200000 Y53.700000 Z1.000000 I3.847291 J-0.917273
G03 X413.696259 Y54.952853 Z1.000000 I-1.657507 J1.381256
G03 X414.000000 Y68.200000 Z1.000000 I-180.627983 J10.768630
G03 X413.816599 Y81.499411 Z1.000000 I-72664.961584 J-995.410408
G02 X413.900000 Y82.600000 Z1.000000 I6.172803 J0.085689
G02 X414.714007 Y83.515830 Z1.000000 I1.039108 J-0.103911
G02 X435.500000 Y87.300000 Z1.000000 I61.262834 J-277.529877
G03 X449.547331 Y90.037070 Z1.000000 I-28.863026 J185.548022
G03 X451.500000 Y91.000000 Z1.000000 I-1.102515 J4.697044
G03 X452.737906 Y93.061798 Z1.000000 I-2.339095 J2.806914
G03 X453.612500 Y100.062500 Z1.000000 I-42.637049 J8.881608
G03 X453.494383 Y107.100603 Z1.000000 I-58.657386 J2.535622
G03 X452.500000 Y112.800000 Z1.000000 I-30.099566 J-2.315074
G03 X446.417578 Y123.150250 Z1.000000 I-22.823483 J-6.450115
G03 X433.600000 Y131.600000 Z1.000000 I-27.166239 J-27.262472
G03 X424.518482 Y134.830245 Z1.000000 I-39.792334 J-97.491219
G03 X417.700000 Y136.400000 Z1.000000 I-14.655687 J-48.065874
G02 X411.210904 Y138.165481 Z1.000000 I6.570128 J36.956970
G02 X409.900000 Y139.300000 Z1.000000 I0.860537 J2.318941
G02 X409.285062 Y141.073088 Z1.000000 I3.105153 J2.070102
G02 X409.200000 Y147.700000 Z1.000000 I49.459121 J3.948848
G01 X409.500000 Y154.400000 Z1.000000
G01 X413.100000 Y151.200000 Z1.000000
G03 X417.847138 Y148.626997 Z1.000000 I8.069370 J9.222137
G03 X419.000000 Y149.500000 Z1.000000 I0.245891 J0.873003
G03 X418.442578 Y152.049568 Z1.000000 I-6.109393 J-0.000000
G03 X410.387500 Y168.875000 Z1.000000 I-529.604936 J-243.204426
G03 X401.830756 Y185.313573 Z1.000000 I-475.762092 J-237.201386
G03 X401.100000 Y185.400000 Z1.000000 I-0.395909 J-0.214934
G03 X400.362025 Y184.378797 Z1.000000 I2.802450 J-2.802450
G03 X397.900000 Y179.200000 Z1.000000 I114.558130 J-57.636108
G01 X395.700000 Y173.800000 Z1.000000
G01 X398.400000 Y168.300000 Z1.000000
G02 X400.176497 Y162.473487 Z1.000000 I-17.149405 J-8.412916
G02 X400.900000 Y150.300000 Z1.000000 I-79.094951 J-10.809069
G02 X400.240256 Y138.210403 Z1.000000 I-147.665330 J1.995477
G02 X399.600000 Y137.100000 Z1.000000 I-1.538707 J0.147428
G02 X398.272046 Y136.572479 Z1.000000 I-1.526986 J1.908732
G02 X367.500000 Y134.500000 Z1.000000 I-88.012147 J1077.312282
G03 X358.552641 Y133.821605 Z1.000000 I18.872877 J-308.256984
G03 X350.500000 Y133.000000 Z1.000000 I31.776178 J-351.315208
G02 X342.472928 Y131.936362 Z1.000000 I-144.376091 J1058.757992
G02 X335.000000 Y131.000000 Z1.000000 I-145.652857 J1132.139061
G02 X301.428138 Y127.611275 Z1.000000 I-81.744553 J641.846116
G02 X274.300000 Y126.600000 Z1.000000 I-27.128138 J363.359811
G02 X255.274787 Y126.915575 Z1.000000 I-3.470615 J364.414621
G02 X254.400000 Y127.300000 Z1.000000 I0.056195 J1.315407
G02 X253.857790 Y129.414153 Z1.000000 I1.515206 J1.515206
G02 X259.300000 Y144.000000 Z1.000000 I101.319870 J-29.495836
G03 X265.542629 Y159.590109 Z1.000000 I-144.175143 J66.775856
G03 X267.700000 Y168.700000 Z1.000000 I-46.488840 J15.819713
G02 X269.262097 Y172.492183 Z1.000000 I7.729621 J-0.966203
G02 X274.200000 Y177.100000 Z1.000000 I16.492860 J-12.724620
G02 X290.289155 Y185.937206 Z1.000000 I51.878033 J-75.385266
G02 X296.300000 Y186.600000 Z1.000000 I4.107938 J-9.667270
G03 X306.283022 Y185.571485 Z1.000000 I12.422320 J71.611024
G03 X307.700000 Y186.200000 Z1.000000 I0.059673 J1.777004
G03 X308.477664 Y187.610670 Z1.000000 I-3.006789 J2.577247
G03 X309.500000 Y192.000000 Z1.000000 I-30.709893 J9.466487
G03 X309.437467 Y196.325226 Z1.000000 I-14.105725 J1.959128
G03 X308.300000 Y198.800000 Z1.000000 I-5.148053 J-0.867381
G03 X300.874312 Y202.479104 Z1.000000 I-7.552877 J-5.910947
G03 X286.100000 Y199.200000 Z1.000000 I-0.437055 J-32.953891
G03 X275.265182 Y193.356045 Z1.000000 I88.821014 J-177.642028
G03 X270.800000 Y190.300000 Z1.000000 I18.225932 J-31.419937
G02 X269.070586 Y190.823939 Z1.000000 I-0.695173 J0.821568
G02 X267.200000 Y202.700000 Z1.000000 I46.714693 J13.443328
G01 X266.800000 Y213.900000 Z1.000000
G01 X270.000000 Y218.100000 Z1.000000
G03 X272.950179 Y222.335101 Z1.000000 I-25.868548 J21.165175
G03 X279.400000 Y234.300000 Z1.000000 I-159.502739 J93.702727
G02 X285.777622 Y246.026759 Z1.000000 I264.720967 J-136.371407
G02 X286.600000 Y246.700000 Z1.000000 I1.294072 J-0.741841
G02 X287.303240 Y246.388259 Z1.000000 I0.180574 J-0.541723
G02 X288.900000 Y241.600000 Z1.000000 I-24.969556 J-10.987066
G03 X290.569286 Y236.159998 Z1.000000 I36.720632 J8.291756
G03 X295.000000 Y226.100000 Z1.000000 I123.402299 J48.344235
G03 X300.730544 Y216.763274 Z1.000000 I51.467229 J25.161756
G03 X305.900000 Y211.700000 Z1.000000 I19.388209 J14.624230
G03 X316.783654 Y207.215118 Z1.000000 I14.426790 J19.561749
G03 X329.700000 Y208.200000 Z1.000000 I4.280539 J29.051255
G03 X336.618015 Y211.435105 Z1.000000 I-8.197307 J26.543660
G03 X343.500000 Y217.200000 Z1.000000 I-20.071036 J30.950505
G03 X350.289394 Y228.245036 Z1.000000 I-22.572237 J21.484418
G03 X353.700000 Y246.000000 Z1.000000 I-56.316592 J20.023086
G03 X352.625109 Y261.717836 Z1.000000 I-73.482856 J2.870424
G03 X346.600000 Y286.000000 Z1.000000 I-182.304549 J-32.346465
G02 X337.339569 Y316.577327 Z1.000000 I685.851553 J224.403043
G02 X337.600000 Y318.100000 Z1.000000 I1.741830 J0.485694
G02 X338.545248 Y318.717183 Z1.000000 I1.075319 J-0.614468
G02 X343.100000 Y318.800000 Z1.000000 I2.751932 J-26.058075
G03 X347.586641 Y318.748667 Z1.000000 I2.501163 J22.510464
G03 X348.000000 Y319.200000 Z1.000000 I-0.039718 J0.451333
G03 X347.749271 Y320.014913 Z1.000000 I-1.449668 J-0.000000
G03 X344.200000 Y324.800000 Z1.000000 I-59.781156 J-40.632974
G02 X340.659028 Y329.719514 Z1.000000 I42.475914 J34.307469
G02 X334.000000 Y340.800000 Z1.000000 I200.216013 J127.864783
G03 X329.201433 Y348.561111 Z1.000000 I-125.292334 J-72.102192
G03 X327.212500 Y351.025000 Z1.000000 I-14.087586 J-9.337256
G03 X325.815059 Y351.280047 Z1.000000 I-0.878362 J-0.856763
G03 X325.000000 Y350.000000 Z1.000000 I0.597624 J-1.280047
G02 X324.611279 Y348.081532 Z1.000000 I-4.928496 J0.000000
G02 X320.800000 Y340.100000 Z1.000000 I-89.232214 J37.708736
G01 X316.500000 Y332.200000 Z1.000000
G01 X319.400000 Y329.100000 Z1.000000
G02 X322.379753 Y323.804262 Z1.000000 I-8.564981 J-8.305436
G02 X324.000000 Y311.700000 Z1.000000 I-48.569170 J-12.661922
G03 X327.023634 Y291.904860 Z1.000000 I66.309267 J-0.000000
G03 X338.600000 Y264.500000 Z1.000000 I147.290995 J46.071213
G02 X343.506697 Y254.438598 Z1.000000 I-119.999418 J-64.747887
G02 X344.862500 Y249.725000 Z1.000000 I-16.991059 J-7.439038
G02 X344.486093 Y245.184789 Z1.000000 I-9.875348 J-1.466990
G02 X342.200000 Y240.500000 Z1.000000 I-17.635746 J5.705745
G02 X334.560795 Y234.083664 Z1.000000 I-15.758115 J11.005668
G02 X322.900000 Y231.500000 Z1.000000 I-11.660795 J25.022375
G02 X315.632903 Y232.565590 Z1.000000 I0.394402 J28.002557
G02 X310.700000 Y235.000000 Z1.000000 I4.172388 J14.669644
G02 X301.728515 Y244.027532 Z1.000000 I31.123514 J39.901941
G02 X297.700000 Y251.800000 Z1.000000 I19.585755 J15.081647
G02 X295.259760 Y261.976434 Z1.000000 I77.948239 J24.072250
G02 X292.500000 Y281.200000 Z1.000000 I334.842606 J57.880325
G03 X290.028071 Y297.632506 Z1.000000 I-189.372185 J-20.084929
G03 X285.250000 Y319.500000 Z1.000000 I-495.566696 J-96.826108
G03 X279.057444 Y341.988753 Z1.000000 I-360.891229 J-87.278877
G03 X277.400000 Y343.700000 Z1.000000 I-2.516021 J-0.778626
G03 X276.657564 Y343.386966 Z1.000000 I-0.193038 J-0.579114
G03 X274.500000 Y337.800000 Z1.000000 I32.711714 J-15.842636
G02 X272.416007 Y331.509149 Z1.000000 I-76.616735 J21.890496
G02 X270.400000 Y326.700000 Z1.000000 I-68.794305 J26.011604
G01 X268.200000 Y321.900000 Z1.000000
G01 X270.900000 Y315.700000 Z1.000000
G02 X273.299503 Y309.372241 Z1.000000 I-58.392889 J-25.761569
G02 X276.000000 Y299.800000 Z1.000000 I-137.576966 J-43.979921
G02 X277.507283 Y289.990281 Z1.000000 I-69.213687 J-15.655477
G02 X277.800000 Y277.300000 Z1.000000 I-106.530885 J-8.805786
G02 X276.667262 Y264.543757 Z1.000000 I-150.120521 J6.902093
G02 X275.100000 Y256.500000 Z1.000000 I-66.372359 J8.757565
G02 X269.369017 Y241.464964 Z1.000000 I-78.577621 J21.342070
G02 X267.000000 Y240.000000 Z1.000000 I-2.369017 J1.183006
G02 X266.403819 Y240.508938 Z1.000000 I0.000000 J0.603659
G02 X265.400000 Y250.500000 Z1.000000 I86.392316 J13.725939
G03 X264.782205 Y260.515772 Z1.000000 I-704.370598 J-38.420214
G03 X264.000000 Y270.000000 Z1.000000 I-349.796665 J-24.074855
G01 X262.100000 Y289.000000 Z1.000000
G02 X261.338452 Y298.493256 Z1.000000 I299.811987 J28.828076
G02 X260.100000 Y320.000000 Z1.000000 I1600.250350 J102.938378
G03 X258.739321 Y341.433876 Z1.000000 I-2586.179411 J-153.417423
G03 X257.300000 Y359.800000 Z1.000000 I-861.669263 J-58.288029
G02 X256.151284 Y377.990834 Z1.000000 I568.603876 J45.037931
G02 X256.400000 Y378.800000 Z1.000000 I1.249125 J0.058860
G02 X257.188686 Y378.973726 Z1.000000 I0.530283 J-0.530283
G02 X261.200000 Y377.200000 Z1.000000 I-11.713380 J-31.912724
G03 X265.195796 Y375.218411 Z1.000000 I15.484924 J26.205256
G03 X265.600000 Y375.300000 Z1.000000 I0.140673 J0.345120
G03 X265.868458 Y376.438635 Z1.000000 I-0.786369 J0.786369
G03 X257.437500 Y400.687500 Z1.000000 I-989.944480 J-330.598421
G03 X248.409136 Y424.739642 Z1.000000 I-991.682672 J-358.523746
G03 X247.400000 Y425.700000 Z1.000000 I-1.527487 J-0.594695
G03 X246.700180 Y425.431055 Z1.000000 I-0.137458 J-0.687290
G03 X242.100000 Y418.400000 Z1.000000 I56.005196 J-41.662698
G01 X242.100000 Y418.400000 Z1.000000
G00 Z5.000000

(End cutting path id: path3793)


(Start cutting path id: path3793)
(Change tool to Default tool)

G00 Z5.000000
G00 X345.000000 Y222.000000

G01 Z1.000000 F100.0(Penetrate)
G02 X344.715683 Y221.329771 Z1.000000 I-0.932133 J0.000000 F400.000000
G02 X343.900000 Y221.000000 Z1.000000 I-0.815683 J0.843903
G02 X343.444579 Y221.308335 Z1.000000 I0.000000 J0.490504
G02 X343.500000 Y222.000000 Z1.000000 I0.724918 J0.289967
G02 X344.166356 Y222.842633 Z1.000000 I2.354849 J-1.177424
G02 X344.600000 Y223.000000 Z1.000000 I0.433644 J-0.518797
G02 X344.812936 Y222.862936 Z1.000000 I0.000000 J-0.233935
G02 X345.000000 Y222.000000 Z1.000000 I-1.896850 J-0.862936
G01 X345.000000 Y222.000000 Z1.000000
G00 Z5.000000

(End cutting path id: path3793)


(Start cutting path id: path3793)
(Change tool to Default tool)

G00 Z5.000000
G00 X255.500000 Y159.400000

G01 Z1.000000 F100.0(Penetrate)
G02 X254.573628 Y143.486792 Z1.000000 I-188.553917 J2.992919 F400.000000
G02 X253.000000 Y135.000000 Z1.000000 I-51.848105 J5.224430
G02 X251.338161 Y128.970473 Z1.000000 I-544.816050 J146.916688
G02 X250.612500 Y127.662500 Z1.000000 I-3.130511 J0.881517
G02 X249.422715 Y127.200309 Z1.000000 I-1.059325 J0.964460
G02 X246.200000 Y127.600000 Z1.000000 I4.592523 J50.221831
G02 X230.717071 Y131.167616 Z1.000000 I12.766989 J90.787477
G02 X223.800000 Y135.000000 Z1.000000 I6.361221 J19.639875
G02 X223.518478 Y136.692387 Z1.000000 I0.802478 J1.003097
G02 X229.100000 Y143.300000 Z1.000000 I27.108476 J-17.237628
G02 X251.685208 Y162.102286 Z1.000000 I216.746648 J-237.389186
G02 X254.500000 Y162.600000 Z1.000000 I1.893075 J-2.497868
G02 X255.139014 Y162.026533 Z1.000000 I-0.131560 J-0.789357
G02 X255.500000 Y159.400000 Z1.000000 I-9.374840 J-2.626533
G01 X255.500000 Y159.400000 Z1.000000
G00 Z5.000000

(End cutting path id: path3793)


(Start cutting path id: path3793)
(Change tool to Default tool)

G00 Z5.000000
G00 X424.500000 Y117.900000

G01 Z1.000000 F100.0(Penetrate)
G02 X430.402024 Y115.276639 Z1.000000 I-27.543344 J-69.917720 F400.000000
G02 X433.400000 Y113.600000 Z1.000000 I-15.709540 J-31.608665
G02 X435.739134 Y111.504253 Z1.000000 I-6.535821 J-9.648117
G02 X438.862500 Y107.400000 Z1.000000 I-36.019073 J-30.651353
G02 X441.454466 Y102.933020 Z1.000000 I-30.474210 J-20.668153
G02 X441.400000 Y101.800000 Z1.000000 I-1.055359 J-0.517086
G02 X440.700616 Y101.393891 Z1.000000 I-0.828343 J0.621257
G02 X434.400000 Y101.000000 Z1.000000 I-6.300616 J50.194895
G03 X427.860634 Y100.728391 Z1.000000 I-0.000000 J-78.857949
G03 X420.900000 Y99.800000 Z1.000000 I5.875786 J-70.611811
G02 X414.132396 Y99.150679 Z1.000000 I-8.316555 J51.087406
G02 X413.000000 Y99.600000 Z1.000000 I-0.045979 J1.535738
G02 X412.452551 Y100.680299 Z1.000000 I1.376320 J1.376320
G02 X411.400000 Y110.900000 Z1.000000 I101.488546 J15.616600
G01 X410.700000 Y121.200000 Z1.000000
G01 X414.600000 Y120.700000 Z1.000000
G02 X418.370820 Y119.984136 Z1.000000 I-1.966435 J-20.647566
G02 X424.500000 Y117.900000 Z1.000000 I-18.856784 J-65.510046
G01 X424.500000 Y117.900000 Z1.000000
G00 Z5.000000

(End cutting path id: path3793)


(Start cutting path id: path3791)
(Change tool to Default tool)

G00 Z5.000000
G00 X247.200000 Y459.900000

G01 Z1.000000 F100.0(Penetrate)
G03 X246.092655 Y456.205779 Z1.000000 I5.712090 J-3.725276 F400.000000
G03 X247.100000 Y448.600000 Z1.000000 I28.245538 J-0.128628
G02 X247.270333 Y444.974974 Z1.000000 I-8.343434 J-2.208556
G02 X246.100000 Y442.700000 Z1.000000 I-4.132917 J0.687610
G02 X243.925480 Y441.487155 Z1.000000 I-3.223297 J3.223297
G02 X241.700000 Y441.700000 Z1.000000 I-0.799491 J3.381708
G02 X239.478656 Y444.293071 Z1.000000 I1.832568 J3.817851
G02 X238.000000 Y454.300000 Z1.000000 I33.122040 J10.006929
G03 X237.697940 Y457.210800 Z1.000000 I-14.175992 J0.000000
G03 X237.225000 Y457.812500 Z1.000000 I-0.844698 J-0.177221
G03 X236.500432 Y457.755997 Z1.000000 I-0.313298 J-0.656434
G03 X234.500000 Y456.000000 Z1.000000 I6.313853 J-9.210184
G03 X233.504428 Y453.864828 Z1.000000 I3.123648 J-2.756160
G03 X233.800000 Y451.400000 Z1.000000 I4.618680 J-0.696283
G02 X234.628821 Y448.875427 Z1.000000 I-6.653677 J-3.582749
G02 X235.000000 Y443.600000 Z1.000000 I-37.303208 J-5.275427
G03 X236.001129 Y437.796660 Z1.000000 I17.320961 J-0.000000
G03 X237.800000 Y435.675000 Z1.000000 I3.704193 J1.317213
G03 X240.553262 Y435.274633 Z1.000000 I1.905980 J3.440061
G03 X246.000000 Y437.500000 Z1.000000 I-3.730479 J16.908913
G01 X249.900000 Y440.000000 Z1.000000
G01 X253.300000 Y438.000000 Z1.000000
G03 X258.569079 Y436.793489 Z1.000000 I4.509157 J7.583583
G03 X261.387500 Y438.450000 Z1.000000 I-0.326983 J3.782251
G03 X262.596628 Y442.159472 Z1.000000 I-5.864505 J3.963374
G03 X261.600000 Y450.300000 Z1.000000 I-26.094099 J0.936624
G02 X260.254065 Y455.805857 Z1.000000 I52.523960 J15.757188
G02 X260.000000 Y458.500000 Z1.000000 I14.157500 J2.694143
G03 X259.495867 Y460.505785 Z1.000000 I-4.242255 J-0.000000
G03 X258.800000 Y460.800000 Z1.000000 I-0.530479 J-0.284642
G03 X257.191069 Y458.631132 Z1.000000 I0.744501 J-2.233504
G03 X258.500000 Y449.800000 Z1.000000 I25.685974 J-0.705451
G02 X260.378914 Y443.134736 Z1.000000 I-84.789844 J-27.499409
G02 X260.200000 Y442.500000 Z1.000000 I-0.655963 J-0.157686
G02 X257.484281 Y441.800843 Z1.000000 I-2.007852 J2.175173
G02 X253.300000 Y444.300000 Z1.000000 I1.991556 J8.086820
G02 X250.338683 Y449.734056 Z1.000000 I8.603525 J8.212456
G02 X249.800000 Y458.700000 Z1.000000 I24.972498 J5.999528
G03 X248.850169 Y460.384606 Z1.000000 I-1.663587 J0.172095
G03 X247.200000 Y459.900000 Z1.000000 I-0.552447 J-1.170683
G01 X247.200000 Y459.900000 Z1.000000
G00 Z5.000000

(End cutting path id: path3791)


(Start cutting path id: path3789)
(Change tool to Default tool)

G00 Z5.000000
G00 X268.100000 Y481.800000

G01 Z1.000000 F100.0(Penetrate)
G02 X231.623225 Y475.508161 Z1.000000 I-37.418807 J108.052060 F400.000000
G02 X215.300000 Y481.500000 Z1.000000 I-0.203298 J24.676301
G03 X209.803321 Y484.322751 Z1.000000 I-8.863124 J-10.495805
G03 X206.500000 Y483.700000 Z1.000000 I-0.979675 J-3.875856
G03 X205.853356 Y482.243940 Z1.000000 I1.009301 J-1.319855
G03 X206.800000 Y480.200000 Z1.000000 I3.258612 J0.268028
G02 X208.640001 Y477.819558 Z1.000000 I-8.374746 J-8.374746
G02 X209.600000 Y475.300000 Z1.000000 I-7.009717 J-4.113501
G03 X210.520554 Y472.507089 Z1.000000 I19.448379 J4.862095
G03 X211.700000 Y470.400000 Z1.000000 I9.438947 J3.899820
G02 X212.500180 Y468.037525 Z1.000000 I-4.599259 J-2.874537
G02 X212.400000 Y463.000000 Z1.000000 I-21.963889 J-2.082970
G03 X212.440842 Y458.588371 Z1.000000 I14.826023 J-2.068747
G03 X213.100000 Y458.200000 Z1.000000 I0.489714 J0.077601
G03 X213.928720 Y459.091507 Z1.000000 I-0.345680 J1.152266
G03 X214.500000 Y464.300000 Z1.000000 I-23.457901 J5.208493
G02 X214.788504 Y469.640836 Z1.000000 I49.579421 J0.000000
G02 X215.200000 Y470.500000 Z1.000000 I1.425071 J-0.154411
G02 X216.051111 Y470.781176 Z1.000000 I0.704862 J-0.704862
G02 X222.500000 Y469.500000 Z1.000000 I-9.874219 J-66.573607
G03 X229.072998 Y468.362275 Z1.000000 I9.162040 J33.376003
G03 X238.200000 Y468.400000 Z1.000000 I4.325257 J57.658670
G03 X247.258097 Y469.243672 Z1.000000 I-8.270964 J137.849408
G03 X250.400000 Y469.900000 Z1.000000 I-2.516308 J19.894243
G03 X260.267919 Y473.135596 Z1.000000 I-154.172255 J486.859751
G03 X273.700000 Y477.900000 Z1.000000 I-165.310636 J487.369741
G02 X281.746725 Y480.246702 Z1.000000 I20.100002 J-53.952636
G02 X282.600000 Y479.900000 Z1.000000 I0.171531 J-0.801199
G03 X284.485632 Y479.723838 Z1.000000 I1.010020 J0.631262
G03 X286.000000 Y483.600000 Z1.000000 I-4.203511 J3.876162
G03 X285.170703 Y485.197534 Z1.000000 I-1.953371 J0.000000
G03 X282.800000 Y485.900000 Z1.000000 I-2.227440 J-3.165638
G03 X279.603677 Y485.379490 Z1.000000 I0.849478 J-15.290595
G03 X268.100000 Y481.800000 Z1.000000 I46.401471 J-169.398778
G01 X268.100000 Y481.800000 Z1.000000
G00 Z5.000000

(End cutting path id: path3789)


(Start cutting path id: path3787)
(Change tool to Default tool)

G00 Z5.000000
G00 X245.200000 Y502.100000

G01 Z1.000000 F100.0(Penetrate)
G03 X244.403071 Y500.899229 Z1.000000 I0.862265 J-1.437108 F400.000000
G03 X243.600000 Y491.500000 Z1.000000 I83.050565 J-11.829769
G01 X243.500000 Y481.700000 Z1.000000
G01 X245.700000 Y486.800000 Z1.000000
G03 X249.257743 Y499.960260 Z1.000000 I-40.556260 J18.025004
G03 X247.500000 Y502.600000 Z1.000000 I-2.454526 J0.270677
G03 X246.580552 Y502.689368 Z1.000000 I-0.613029 J-1.532572
G03 X245.200000 Y502.100000 Z1.000000 I0.647830 J-3.429103
G01 X245.200000 Y502.100000 Z1.000000
G00 Z5.000000

(End cutting path id: path3787)


(Footer)
M5
G00 X0.0000 Y0.0000
M2
(Using default footer. To add your own footer create file "footer" in the output dir.)
(end)
%