%
(Header)
(Generated by gcodetools from Inkscape.)
(Using default header. To add your own header create file "header" in the output dir.)
M3
(Header end.)
G21 (All units in mm)

(Start cutting path id: path11762)
(Change tool to Default tool)

G00 Z5.000000
G00 X235.600000 Y35.100000

G01 Z1.000000 F100.0(Penetrate)
G03 X213.627800 Y25.129879 Z1.000000 I60.683117 J-162.930013 F400.000000
G03 X212.000000 Y22.400000 Z1.000000 I1.475151 J-2.729879
G03 X212.577899 Y21.936846 Z1.000000 I0.474545 J-0.000000
G03 X218.800000 Y23.900000 Z1.000000 I-8.264838 J37.036796
G02 X225.555826 Y26.585083 Z1.000000 I199.253827 J-491.492772
G02 X241.000000 Y32.500000 Z1.000000 I527.010173 J-1352.932266
G03 X257.708311 Y40.036826 Z1.000000 I-45.059557 J122.180722
G03 X259.000000 Y42.200000 Z1.000000 I-1.165476 J2.163174
G03 X258.293460 Y42.724778 Z1.000000 I-0.548158 J0.000000
G03 X235.600000 Y35.100000 Z1.000000 I111.496791 J-369.428872
G01 X235.600000 Y35.100000 Z1.000000
G00 Z5.000000

(End cutting path id: path11762)


(Start cutting path id: path11760)
(Change tool to Default tool)

G00 Z5.000000
G00 X555.600000 Y41.700000

G01 Z1.000000 F100.0(Penetrate)
G03 X534.418542 Y32.808111 Z1.000000 I109.878594 J-291.417140 F400.000000
G03 X532.800000 Y31.100000 Z1.000000 I1.341651 J-2.892189
G03 X532.139828 Y28.715894 Z1.000000 I41.688181 J-12.827132
G03 X532.200000 Y28.500000 Z1.000000 I0.221455 J-0.054610
G03 X532.960191 Y28.366162 Z1.000000 I0.493176 J0.575372
G03 X554.412500 Y36.662500 Z1.000000 I-453.484517 J1204.483930
G03 X575.550819 Y45.268364 Z1.000000 I-485.339698 J1222.388524
G03 X577.300000 Y46.400000 Z1.000000 I-2.253961 J5.401654
G03 X578.953859 Y49.092850 Z1.000000 I-4.135980 J4.394479
G03 X578.300000 Y49.900000 Z1.000000 I-0.605458 J0.177944
G03 X577.419842 Y49.745408 Z1.000000 I0.000000 J-2.582847
G03 X555.600000 Y41.700000 Z1.000000 I718.194015 J-1981.415693
G01 X555.600000 Y41.700000 Z1.000000
G00 Z5.000000

(End cutting path id: path11760)


(Start cutting path id: path11758)
(Change tool to Default tool)

G00 Z5.000000
G00 X362.000000 Y50.000000

G01 Z1.000000 F100.0(Penetrate)
G03 X362.413653 Y48.351153 Z1.000000 I3.493033 J0.000000 F400.000000
G03 X363.000000 Y48.000000 Z1.000000 I0.586347 J0.313958
G03 X363.647059 Y48.411765 Z1.000000 I-0.000000 J0.714286
G03 X364.000000 Y50.000000 Z1.000000 I-3.397059 J1.588235
G03 X363.647059 Y51.588235 Z1.000000 I-3.750000 J0.000000
G03 X363.000000 Y52.000000 Z1.000000 I-0.647059 J-0.302521
G03 X362.413653 Y51.648847 Z1.000000 I0.000000 J-0.665111
G03 X362.000000 Y50.000000 Z1.000000 I3.079380 J-1.648847
G01 X362.000000 Y50.000000 Z1.000000
G00 Z5.000000

(End cutting path id: path11758)


(Start cutting path id: path11756)
(Change tool to Default tool)

G00 Z5.000000
G00 X279.100000 Y58.900000

G01 Z1.000000 F100.0(Penetrate)
G03 X280.873154 Y54.438609 Z1.000000 I6.155031 J-0.136778 F400.000000
G03 X283.900000 Y54.000000 Z1.000000 I1.803062 J1.779499
G03 X285.414220 Y55.413054 Z1.000000 I-1.386064 J3.003139
G03 X286.000000 Y57.700000 Z1.000000 I-4.171346 J2.286946
G03 X285.437401 Y59.058234 Z1.000000 I-1.920833 J-0.000000
G03 X284.600000 Y59.100000 Z1.000000 I-0.441776 J-0.441776
G02 X281.765301 Y58.590890 Z1.000000 I-1.871133 J2.272090
G02 X279.700000 Y60.800000 Z1.000000 I1.060735 J3.061665
G03 X279.415582 Y60.798302 Z1.000000 I-0.141960 J-0.042588
G03 X279.100000 Y58.900000 Z1.000000 I8.075205 J-2.317841
G01 X279.100000 Y58.900000 Z1.000000
G00 Z5.000000

(End cutting path id: path11756)


(Start cutting path id: path11754)
(Change tool to Default tool)

G00 Z5.000000
G00 X429.000000 Y59.500000

G01 Z1.000000 F100.0(Penetrate)
G02 X409.537008 Y52.305424 Z1.000000 I-313.414043 J817.934209 F400.000000
G02 X408.300000 Y52.000000 Z1.000000 I-2.137978 J6.001364
G03 X405.335325 Y50.493708 Z1.000000 I0.000000 J-3.670674
G03 X404.000000 Y46.400000 Z1.000000 I5.607382 J-4.093708
G03 X404.523947 Y46.006485 Z1.000000 I0.409750 J0.000000
G03 X415.300000 Y49.700000 Z1.000000 I-33.246019 J114.563920
G02 X426.516383 Y54.068991 Z1.000000 I647.643839 J-1646.094755
G02 X437.500000 Y58.200000 Z1.000000 I254.476389 J-659.940188
G03 X449.787680 Y64.068097 Z1.000000 I-25.954574 J70.147498
G03 X451.000000 Y66.200000 Z1.000000 I-1.268350 J2.131903
G03 X450.231802 Y66.767332 Z1.000000 I-0.593593 J0.000000
G03 X429.000000 Y59.500000 Z1.000000 I105.736061 J-343.560591
G01 X429.000000 Y59.500000 Z1.000000
G00 Z5.000000

(End cutting path id: path11754)


(Start cutting path id: path11752)
(Change tool to Default tool)

G00 Z5.000000
G00 X353.200000 Y65.800000

G01 Z1.000000 F100.0(Penetrate)
G03 X352.037581 Y62.674326 Z1.000000 I2.832301 J-2.832301 F400.000000
G03 X353.600000 Y60.600000 Z1.000000 I2.391347 J0.175621
G03 X356.118573 Y60.746990 Z1.000000 I1.090782 J2.960694
G03 X356.500000 Y62.100000 Z1.000000 I-0.432429 J0.852175
G02 X356.545669 Y62.670461 Z1.000000 I0.326182 J0.260946
G02 X357.400000 Y63.000000 Z1.000000 I0.854331 J-0.942659
G03 X358.724667 Y63.336871 Z1.000000 I0.000000 J2.772905
G03 X359.000000 Y63.800000 Z1.000000 I-0.251840 J0.463129
G03 X358.013168 Y66.029168 Z1.000000 I-3.011163 J-0.000000
G03 X355.500000 Y67.000000 Z1.000000 I-2.513168 J-2.767469
G03 X354.539472 Y66.770654 Z1.000000 I0.000000 J-2.126075
G03 X353.200000 Y65.800000 Z1.000000 I2.370155 J-4.680281
G01 X353.200000 Y65.800000 Z1.000000
G00 Z5.000000

(End cutting path id: path11752)


(Start cutting path id: path11750)
(Change tool to Default tool)

G00 Z5.000000
G00 X368.300000 Y67.800000

G01 Z1.000000 F100.0(Penetrate)
G03 X367.453303 Y66.420497 Z1.000000 I3.901792 J-3.344393 F400.000000
G03 X366.700000 Y64.000000 Z1.000000 I12.941495 J-5.355097
G03 X366.328847 Y62.279839 Z1.000000 I26.293509 J-6.573377
G03 X366.400000 Y62.137500 Z1.000000 I0.130451 J-0.023743
G03 X366.554073 Y62.169513 Z1.000000 I0.056771 J0.113542
G03 X367.600000 Y63.500000 Z1.000000 I-20.795115 J17.423886
G02 X369.195387 Y64.537885 Z1.000000 I2.099342 J-1.481888
G02 X371.100000 Y64.200000 Z1.000000 I0.520545 J-2.602724
G03 X372.995798 Y63.325171 Z1.000000 I3.907485 J5.976154
G03 X373.625000 Y63.475000 Z1.000000 I0.183571 J0.625169
G03 X373.902216 Y64.128917 Z1.000000 I-0.600121 J0.640129
G03 X373.600000 Y66.500000 Z1.000000 I-10.781924 J-0.169453
G03 X371.263473 Y68.801412 Z1.000000 I-3.091004 J-0.801371
G03 X368.300000 Y67.800000 Z1.000000 I-0.690857 J-2.841149
G01 X368.300000 Y67.800000 Z1.000000
G00 Z5.000000

(End cutting path id: path11750)


(Start cutting path id: path11748)
(Change tool to Default tool)

G00 Z5.000000
G00 X316.100000 Y68.400000

G01 Z1.000000 F100.0(Penetrate)
G03 X316.377467 Y67.730136 Z1.000000 I0.947330 J-0.000000 F400.000000
G03 X316.700000 Y67.800000 Z1.000000 I0.138774 J0.138774
G03 X316.897212 Y69.070576 Z1.000000 I-2.380016 J1.020007
G03 X316.600000 Y69.700000 Z1.000000 I-1.026430 J-0.099794
G03 X316.302013 Y69.664667 Z1.000000 I-0.138749 J-0.104062
G03 X316.100000 Y68.400000 Z1.000000 I2.385181 J-1.029467
G01 X316.100000 Y68.400000 Z1.000000
G00 Z5.000000

(End cutting path id: path11748)


(Start cutting path id: path11746)
(Change tool to Default tool)

G00 Z5.000000
G00 X140.200000 Y68.000000

G01 Z1.000000 F100.0(Penetrate)
G03 X141.273927 Y65.273193 Z1.000000 I4.813593 J0.320906 F400.000000
G03 X143.200000 Y64.200000 Z1.000000 I2.311800 J1.884046
G03 X145.535159 Y64.648023 Z1.000000 I0.502938 J3.688213
G03 X147.200000 Y66.400000 Z1.000000 I-2.037446 J3.603120
G03 X146.967694 Y68.800469 Z1.000000 I-2.347228 J0.984321
G03 X145.300000 Y69.200000 Z1.000000 I-1.050169 J-0.703191
G02 X143.573609 Y68.871086 Z1.000000 I-1.295659 J2.105447
G02 X141.700000 Y69.800000 Z1.000000 I0.647641 J3.660268
G03 X140.450855 Y70.780771 Z1.000000 I-8.651137 J-9.732529
G03 X140.162500 Y70.737500 Z1.000000 I-0.121118 J-0.175301
G03 X140.038915 Y70.353184 Z1.000000 I0.453147 J-0.357748
G03 X140.200000 Y68.000000 Z1.000000 I52.804212 J2.432555
G01 X140.200000 Y68.000000 Z1.000000
G00 Z5.000000

(End cutting path id: path11746)


(Start cutting path id: path11744)
(Change tool to Default tool)

G00 Z5.000000
G00 X102.000000 Y69.000000

G01 Z1.000000 F100.0(Penetrate)
G03 X102.195697 Y67.164928 Z1.000000 I8.701698 J0.000000 F400.000000
G03 X102.400000 Y67.000000 Z1.000000 I0.204303 J0.044076
G03 X102.642214 Y67.157197 Z1.000000 I0.000000 J0.265203
G03 X103.300000 Y69.000000 Z1.000000 I-11.676343 J5.206657
G03 X103.346622 Y70.638301 Z1.000000 I-3.356179 J0.915322
G03 X102.900000 Y71.000000 Z1.000000 I-0.446622 J-0.094892
G03 X102.350294 Y70.643456 Z1.000000 I0.000000 J-0.602030
G03 X102.000000 Y69.000000 Z1.000000 I3.680114 J-1.643456
G01 X102.000000 Y69.000000 Z1.000000
G00 Z5.000000

(End cutting path id: path11744)


(Start cutting path id: path11742)
(Change tool to Default tool)

G00 Z5.000000
G00 X282.500000 Y69.800000

G01 Z1.000000 F100.0(Penetrate)
G01 X280.900000 Y66.500000 Z1.000000 F400.000000
G01 X282.900000 Y69.000000 Z1.000000
G03 X284.908143 Y72.402968 Z1.000000 I-9.431871 J7.859892
G03 X284.500000 Y73.000000 Z1.000000 I-0.408143 J0.159009
G03 X284.210870 Y72.844535 Z1.000000 I0.000000 J-0.346592
G03 X282.500000 Y69.800000 Z1.000000 I20.213249 J-13.361767
G01 X282.500000 Y69.800000 Z1.000000
G00 Z5.000000

(End cutting path id: path11742)


(Start cutting path id: path11740)
(Change tool to Default tool)

G00 Z5.000000
G00 X553.000000 Y69.600000

G01 Z1.000000 F100.0(Penetrate)
G03 X550.408281 Y61.860389 Z1.000000 I34.856847 J-15.976055 F400.000000
G03 X551.100000 Y61.000000 Z1.000000 I0.691719 J-0.152137
G02 X552.111831 Y60.734879 Z1.000000 I-0.000000 J-2.063381
G02 X558.200000 Y57.000000 Z1.000000 I-46.412693 J-82.486171
G03 X564.232627 Y53.049185 Z1.000000 I244.359558 J366.539337
G03 X564.400000 Y53.000000 Z1.000000 I0.167373 J0.260190
G03 X564.531420 Y53.079984 Z1.000000 I-0.000000 J0.147959
G03 X568.000000 Y59.900000 Z1.000000 I-496.291165 J256.699889
G03 X570.304650 Y65.396626 Z1.000000 I-52.349861 J25.180946
G03 X570.400000 Y67.562500 Z1.000000 I-3.432191 J1.236135
G03 X569.218690 Y69.322349 Z1.000000 I-3.130820 J-0.825177
G03 X564.700000 Y72.300000 Z1.000000 I-25.672272 J-34.041118
G03 X559.028659 Y75.270954 Z1.000000 I-37.184131 J-64.083290
G03 X557.050000 Y75.487500 Z1.000000 I-1.305101 J-2.777048
G03 X555.512476 Y74.384604 Z1.000000 I0.532121 J-2.364981
G03 X553.000000 Y69.600000 Z1.000000 I36.036709 J-21.975457
G01 X553.000000 Y69.600000 Z1.000000
G00 Z5.000000

(End cutting path id: path11740)


(Start cutting path id: path11738)
(Change tool to Default tool)

G00 Z5.000000
G00 X309.400000 Y78.900000

G01 Z1.000000 F100.0(Penetrate)
G03 X309.223955 Y77.874065 Z1.000000 I1.607989 J-0.803994 F400.000000
G03 X309.700000 Y76.900000 Z1.000000 I1.656140 J0.206030
G03 X312.468248 Y76.429110 Z1.000000 I1.716088 J1.716088
G03 X313.300000 Y78.600000 Z1.000000 I-0.734203 J1.526085
G03 X311.528757 Y79.966899 Z1.000000 I-1.941994 J-0.685410
G03 X309.400000 Y78.900000 Z1.000000 I-0.189601 J-2.278872
G01 X309.400000 Y78.900000 Z1.000000
G00 Z5.000000

(End cutting path id: path11738)


(Start cutting path id: path11736)
(Change tool to Default tool)

G00 Z5.000000
G00 X319.600000 Y80.400000

G01 Z1.000000 F100.0(Penetrate)
G02 X319.032543 Y78.866112 Z1.000000 I-23.813751 J7.937917 F400.000000
G03 X319.000000 Y78.700000 Z1.000000 I0.407682 J-0.166112
G03 X319.089129 Y78.595795 Z1.000000 I0.105480 J0.000000
G03 X321.600000 Y78.400000 Z1.000000 I2.510871 J16.001755
G03 X323.319322 Y78.831614 Z1.000000 I0.269978 J2.564791
G03 X323.600000 Y79.700000 Z1.000000 I-0.417509 J0.614499
G02 X323.059772 Y81.229807 Z1.000000 I39.345390 J14.754521
G02 X323.000000 Y81.600000 Z1.000000 I1.116499 J0.370193
G03 X321.731072 Y82.505672 Z1.000000 I-0.957667 J0.000000
G03 X319.600000 Y80.400000 Z1.000000 I1.123105 J-3.267878
G01 X319.600000 Y80.400000 Z1.000000
G00 Z5.000000

(End cutting path id: path11736)


(Start cutting path id: path11734)
(Change tool to Default tool)

G00 Z5.000000
G00 X144.400000 Y81.500000

G01 Z1.000000 F100.0(Penetrate)
G03 X143.061531 Y78.960700 Z1.000000 I14.015785 J-9.010147 F400.000000
G03 X143.200000 Y78.500000 Z1.000000 I0.347867 J-0.146604
G03 X143.522949 Y78.508507 Z1.000000 I0.157439 J0.157439
G03 X145.400000 Y81.000000 Z1.000000 I-13.333700 J11.998212
G03 X146.648667 Y83.665079 Z1.000000 I-14.155026 J8.257099
G03 X146.550000 Y83.912500 Z1.000000 I-0.188214 J0.068327
G03 X146.263517 Y83.861496 Z1.000000 I-0.108978 J-0.217956
G03 X144.400000 Y81.500000 Z1.000000 I12.653691 J-11.901375
G01 X144.400000 Y81.500000 Z1.000000
G00 Z5.000000

(End cutting path id: path11734)


(Start cutting path id: path11732)
(Change tool to Default tool)

G00 Z5.000000
G00 X174.000000 Y82.800000

G01 Z1.000000 F100.0(Penetrate)
G03 X174.436234 Y81.908421 Z1.000000 I1.129226 J0.000000 F400.000000
G03 X175.000000 Y82.000000 Z1.000000 I0.239307 J0.307885
G03 X175.708811 Y84.291189 Z1.000000 I-3.348661 J2.291189
G03 X175.000000 Y85.000000 Z1.000000 I-0.708811 J0.000000
G03 X174.421465 Y84.637358 Z1.000000 I-0.000000 J-0.642799
G03 X174.000000 Y82.800000 Z1.000000 I3.794208 J-1.837358
G01 X174.000000 Y82.800000 Z1.000000
G00 Z5.000000

(End cutting path id: path11732)


(Start cutting path id: path11730)
(Change tool to Default tool)

G00 Z5.000000
G00 X94.200000 Y83.900000

G01 Z1.000000 F100.0(Penetrate)
G03 X93.680026 Y81.848884 Z1.000000 I2.641760 J-1.761173 F400.000000
G03 X94.500000 Y80.100000 Z1.000000 I2.828216 J0.259358
G03 X96.039575 Y79.491668 Z1.000000 I1.471344 J1.471344
G03 X97.400000 Y80.200000 Z1.000000 I-0.058145 J1.772259
G02 X98.740726 Y81.417186 Z1.000000 I3.354940 J-2.348458
G02 X99.300000 Y81.300000 Z1.000000 I0.212933 J-0.376942
G03 X99.735501 Y81.292635 Z1.000000 I0.222837 J0.297116
G03 X100.000000 Y81.800000 Z1.000000 I-0.354366 J0.507365
G03 X98.844974 Y84.818887 Z1.000000 I-4.522739 J-0.000000
G03 X96.200000 Y86.000000 Z1.000000 I-2.644974 J-2.371009
G03 X95.604313 Y85.736818 Z1.000000 I-0.000000 J-0.805733
G03 X94.200000 Y83.900000 Z1.000000 I9.949458 J-9.061945
G01 X94.200000 Y83.900000 Z1.000000
G00 Z5.000000

(End cutting path id: path11730)


(Start cutting path id: path11728)
(Change tool to Default tool)

G00 Z5.000000
G00 X108.600000 Y85.400000

G01 Z1.000000 F100.0(Penetrate)
G03 X107.342331 Y83.722311 Z1.000000 I3.490675 J-3.927010 F400.000000
G03 X107.000000 Y82.200000 Z1.000000 I3.213618 J-1.522311
G03 X107.356945 Y81.698800 Z1.000000 I0.530350 J0.000000
G03 X107.900000 Y81.900000 Z1.000000 I0.149116 J0.430998
G02 X108.962542 Y82.513297 Z1.000000 I1.151278 J-0.767519
G02 X110.500000 Y82.000000 Z1.000000 I0.137917 J-2.146096
G03 X112.770798 Y82.169042 Z1.000000 I1.047314 J1.267801
G03 X113.100000 Y84.900000 Z1.000000 I-1.781735 J1.600099
G03 X111.044483 Y86.260077 Z1.000000 I-2.347585 J-1.314648
G03 X108.600000 Y85.400000 Z1.000000 I-0.325320 J-2.979240
G01 X108.600000 Y85.400000 Z1.000000
G00 Z5.000000

(End cutting path id: path11728)


(Start cutting path id: path11726)
(Change tool to Default tool)

G00 Z5.000000
G00 X97.200000 Y94.800000

G01 Z1.000000 F100.0(Penetrate)
G03 X96.510577 Y93.555142 Z1.000000 I1.822875 J-1.822875 F400.000000
G03 X96.037500 Y90.450000 Z1.000000 I20.439620 J-4.702639
G03 X96.090635 Y87.455414 Z1.000000 I15.911223 J-1.215441
G03 X96.600000 Y87.000000 Z1.000000 I0.509365 J0.057147
G03 X97.072000 Y87.159346 Z1.000000 I-0.000000 J0.778728
G03 X98.700000 Y88.500000 Z1.000000 I-16.940621 J22.230353
G02 X101.079855 Y88.207172 Z1.000000 I1.075597 J-1.075597
G02 X103.100000 Y81.100000 Z1.000000 I-12.157009 J-7.296201
G03 X103.647999 Y76.421623 Z1.000000 I22.629185 J0.279373
G03 X104.000000 Y76.362500 Z1.000000 I0.188058 J0.042223
G03 X104.415369 Y77.516511 Z1.000000 I-2.523783 J1.560157
G03 X104.900000 Y84.000000 Z1.000000 I-51.387826 J7.101019
G03 X101.592781 Y94.447116 Z1.000000 I-17.496255 J0.208289
G03 X97.200000 Y94.800000 Z1.000000 I-2.346593 J-1.693304
G01 X97.200000 Y94.800000 Z1.000000
G00 Z5.000000

(End cutting path id: path11726)


(Start cutting path id: path11724)
(Change tool to Default tool)

G00 Z5.000000
G00 X164.200000 Y97.500000

G01 Z1.000000 F100.0(Penetrate)
G03 X163.960409 Y95.359975 Z1.000000 I2.974532 J-1.416444 F400.000000
G03 X165.000000 Y94.000000 Z1.000000 I1.997668 J0.449726
G03 X167.244247 Y93.623796 Z1.000000 I1.702474 J3.273989
G03 X168.000000 Y94.500000 Z1.000000 I-0.130049 J0.876204
G02 X168.439340 Y95.560660 Z1.000000 I1.500000 J0.000000
G02 X169.500000 Y96.000000 Z1.000000 I1.060660 J-1.060660
G03 X170.195929 Y96.543365 Z1.000000 I0.000000 J0.717347
G03 X170.000000 Y98.000000 Z1.000000 I-1.928425 J0.482106
G03 X167.110389 Y99.551160 Z1.000000 I-2.612401 J-1.399501
G03 X164.200000 Y97.500000 Z1.000000 I0.334989 J-3.565669
G01 X164.200000 Y97.500000 Z1.000000
G00 Z5.000000

(End cutting path id: path11724)


(Start cutting path id: path11722)
(Change tool to Default tool)

G00 Z5.000000
G00 X179.600000 Y100.800000

G01 Z1.000000 F100.0(Penetrate)
G03 X178.097132 Y98.113228 Z1.000000 I12.036969 J-8.496684 F400.000000
G03 X177.975000 Y97.162500 Z1.000000 I1.607288 J-0.689684
G03 X178.433221 Y96.763734 Z1.000000 I0.463509 J0.069964
G03 X180.100000 Y97.200000 Z1.000000 I0.036794 J3.261574
G02 X182.040311 Y97.760332 Z1.000000 I2.064689 J-3.509971
G02 X182.700000 Y97.300000 Z1.000000 I0.020576 J-0.673370
G03 X183.991110 Y96.484116 Z1.000000 I1.144402 J0.381467
G03 X185.400000 Y97.600000 Z1.000000 I-0.209796 J1.712242
G03 X184.975343 Y101.347123 Z1.000000 I-3.885956 J1.457233
G03 X181.900000 Y103.000000 Z1.000000 I-3.075343 J-2.034553
G03 X181.275176 Y102.756678 Z1.000000 I0.000000 J-0.923903
G03 X179.600000 Y100.800000 Z1.000000 I7.273282 J-7.922316
G01 X179.600000 Y100.800000 Z1.000000
G00 Z5.000000

(End cutting path id: path11722)


(Start cutting path id: path11720)
(Change tool to Default tool)

G00 Z5.000000
G00 X29.700000 Y105.000000

G01 Z1.000000 F100.0(Penetrate)
G03 X30.374928 Y103.081973 Z1.000000 I13.615062 J3.713199 F400.000000
G03 X30.500000 Y103.000000 Z1.000000 I0.125072 J0.054428
G03 X30.625072 Y103.081973 Z1.000000 I-0.000000 J0.136401
G03 X31.300000 Y105.000000 Z1.000000 I-12.940134 J5.631226
G03 X31.203878 Y106.518758 Z1.000000 I-2.433595 J0.608399
G03 X30.500000 Y107.000000 Z1.000000 I-0.703878 J-0.274134
G03 X29.796122 Y106.518758 Z1.000000 I-0.000000 J-0.755377
G03 X29.700000 Y105.000000 Z1.000000 I2.337473 J-0.910359
G01 X29.700000 Y105.000000 Z1.000000
G00 Z5.000000

(End cutting path id: path11720)


(Start cutting path id: path11718)
(Change tool to Default tool)

G00 Z5.000000
G00 X326.000000 Y108.000000

G01 Z1.000000 F100.0(Penetrate)
G02 X325.611023 Y105.599447 Z1.000000 I-7.601934 J-0.000000 F400.000000
G02 X325.150000 Y105.112500 Z1.000000 I-0.752036 J0.250286
G02 X324.625390 Y105.251774 Z1.000000 I-0.167883 J0.425303
G02 X323.700000 Y107.100000 Z1.000000 I3.838231 J3.077548
G03 X322.272992 Y107.559919 Z1.000000 I-0.864479 J-0.238477
G03 X321.000000 Y104.900000 Z1.000000 I2.142456 J-2.659919
G02 X320.585314 Y102.540367 Z1.000000 I-6.920707 J-0.000000
G02 X320.087500 Y102.062500 Z1.000000 I-0.733708 J0.266104
G02 X319.507661 Y102.228727 Z1.000000 I-0.164771 J0.519662
G02 X318.500000 Y104.100000 Z1.000000 I3.855774 J3.283239
G03 X317.577487 Y105.219694 Z1.000000 I-1.915908 J-0.638636
G03 X316.700000 Y105.100000 Z1.000000 I-0.359991 J-0.637191
G03 X316.249791 Y103.985698 Z1.000000 I1.087466 J-1.087466
G03 X316.800000 Y101.500000 Z1.000000 I6.394113 J0.111593
G03 X319.324294 Y99.529782 Z1.000000 I3.185307 J1.478892
G03 X322.000000 Y100.500000 Z1.000000 I0.523423 J2.731177
G02 X323.474569 Y101.578137 Z1.000000 I3.140757 J-2.748163
G02 X325.500000 Y102.000000 Z1.000000 I2.025431 J-4.651279
G03 X327.705504 Y103.272757 Z1.000000 I-0.000000 J2.547288
G03 X329.000000 Y108.100000 Z1.000000 I-8.353271 J4.827243
G03 X328.441081 Y110.423839 Z1.000000 I-5.110416 J0.000000
G03 X327.500000 Y111.000000 Z1.000000 I-0.941081 J-0.480484
G03 X326.572949 Y110.427051 Z1.000000 I-0.000000 J-1.036475
G03 X326.000000 Y108.000000 Z1.000000 I4.854102 J-2.427051
G01 X326.000000 Y108.000000 Z1.000000
G00 Z5.000000

(End cutting path id: path11718)


(Start cutting path id: path11716)
(Change tool to Default tool)

G00 Z5.000000
G00 X46.000000 Y107.400000

G01 Z1.000000 F100.0(Penetrate)
G03 X43.070172 Y100.846491 Z1.000000 I156.268242 J-73.793337 F400.000000
G03 X43.000000 Y100.500000 Z1.000000 I0.820358 J-0.346491
G03 X43.148463 Y100.233152 Z1.000000 I0.314049 J0.000000
G03 X47.800000 Y97.500000 Z1.000000 I58.927971 J94.964429
G02 X52.430521 Y94.540930 Z1.000000 I-30.286628 J-52.496822
G02 X54.700000 Y92.800000 Z1.000000 I-20.410796 J-28.957259
G03 X56.938940 Y91.265296 Z1.000000 I6.523774 J7.116844
G03 X57.800000 Y91.300000 Z1.000000 I0.398778 J0.805176
G03 X58.777973 Y92.461081 Z1.000000 I-1.779454 J2.491236
G03 X61.500000 Y98.650000 Z1.000000 I-86.758942 J41.851624
G03 X63.764488 Y105.003853 Z1.000000 I-84.936095 J33.851342
G03 X63.700000 Y106.300000 Z1.000000 I-1.779502 J0.561141
G03 X62.913571 Y107.306255 Z1.000000 I-1.909624 J-0.682008
G03 X57.425000 Y110.675000 Z1.000000 I-48.786795 J-73.330966
G03 X51.730367 Y113.632025 Z1.000000 I-45.098841 J-79.889375
G03 X50.100000 Y114.000000 Z1.000000 I-1.630367 J-3.427808
G03 X49.173622 Y113.477816 Z1.000000 I-0.000000 J-1.082809
G03 X46.000000 Y107.400000 Z1.000000 I46.587825 J-28.194015
G01 X46.000000 Y107.400000 Z1.000000
G00 Z5.000000

(End cutting path id: path11716)


(Start cutting path id: path11714)
(Change tool to Default tool)

G00 Z5.000000
G00 X208.500000 Y115.000000

G01 Z1.000000 F100.0(Penetrate)
G03 X207.896471 Y113.512380 Z1.000000 I3.950030 J-2.468769 F400.000000
G03 X207.800000 Y111.800000 Z1.000000 I5.397473 J-1.162986
G02 X206.921446 Y110.284838 Z1.000000 I-1.356036 J-0.226006
G02 X205.500000 Y111.000000 Z1.000000 I-0.377644 J1.019604
G03 X204.498311 Y112.768836 Z1.000000 I-4.386232 J-1.315870
G03 X203.912500 Y112.912500 Z1.000000 I-0.399906 J-0.364478
G03 X203.407983 Y112.407606 Z1.000000 I0.290942 J-0.795242
G03 X203.000000 Y110.100000 Z1.000000 I6.322074 J-2.307606
G02 X201.727008 Y107.440081 Z1.000000 I-3.415448 J0.000000
G02 X200.300000 Y107.900000 Z1.000000 I-0.562529 J0.698395
G03 X199.341828 Y109.756200 Z1.000000 I-4.710399 J-1.256106
G03 X198.800000 Y109.937500 Z1.000000 I-0.416974 J-0.345862
G03 X198.370820 Y109.531583 Z1.000000 I0.135816 J-0.573447
G03 X198.200000 Y107.400000 Z1.000000 I4.957245 J-1.469897
G03 X200.624136 Y103.811257 Z1.000000 I4.561033 J0.467798
G03 X203.600000 Y104.500000 Z1.000000 I1.089122 J2.067516
G02 X205.314702 Y105.947869 Z1.000000 I3.805711 J-2.767790
G02 X207.100000 Y106.200000 Z1.000000 I1.272870 J-2.566219
G03 X208.955323 Y107.230218 Z1.000000 I0.280190 J1.681142
G03 X209.800000 Y112.600000 Z1.000000 I-10.749525 J4.442246
G03 X209.109627 Y114.961389 Z1.000000 I-5.678588 J-0.378573
G03 X208.500000 Y115.000000 Z1.000000 I-0.317067 J-0.174161
G01 X208.500000 Y115.000000 Z1.000000
G00 Z5.000000

(End cutting path id: path11714)


(Start cutting path id: path11712)
(Change tool to Default tool)

G00 Z5.000000
G00 X403.500000 Y117.900000

G01 Z1.000000 F100.0(Penetrate)
G03 X403.099470 Y116.846561 Z1.000000 I2.104561 J-1.403041 F400.000000
G03 X403.300000 Y116.400000 Z1.000000 I0.455828 J-0.063614
G03 X404.390049 Y115.822226 Z1.000000 I1.485558 J1.485558
G03 X411.087500 Y114.750000 Z1.000000 I20.840709 J108.724120
G03 X417.810147 Y114.084105 Z1.000000 I14.691414 J114.051769
G03 X419.400000 Y114.300000 Z1.000000 I0.273981 J3.944200
G03 X420.712972 Y115.370780 Z1.000000 I-0.930495 J2.481320
G03 X420.575000 Y116.137500 Z1.000000 I-0.489406 J0.307705
G03 X419.259190 Y116.811368 Z1.000000 I-2.508234 J-3.276061
G03 X414.700000 Y117.900000 Z1.000000 I-11.526538 J-38.181875
G03 X404.957830 Y118.746011 Z1.000000 I-9.742170 J-55.669544
G03 X403.500000 Y117.900000 Z1.000000 I0.000000 J-1.679057
G01 X403.500000 Y117.900000 Z1.000000
G00 Z5.000000

(End cutting path id: path11712)


(Start cutting path id: path11710)
(Change tool to Default tool)

G00 Z5.000000
G00 X136.600000 Y114.600000

G01 Z1.000000 F100.0(Penetrate)
G02 X134.570831 Y110.173319 Z1.000000 I-45.867183 J18.346873 F400.000000
G02 X134.000000 Y109.500000 Z1.000000 I-1.762541 J0.915628
G02 X133.063987 Y109.397768 Z1.000000 I-0.578984 J0.964974
G02 X128.100000 Y111.500000 Z1.000000 I11.008913 J32.907110
G03 X123.028410 Y113.798305 Z1.000000 I-32.636335 J-65.272670
G03 X122.000000 Y114.000000 Z1.000000 I-1.028410 J-2.520998
G03 X121.173422 Y113.531076 Z1.000000 I-0.000000 J-0.962971
G03 X118.462500 Y108.487500 Z1.000000 I53.990623 J-32.270309
G03 X116.196349 Y103.191969 Z1.000000 I59.966871 J-28.794665
G03 X116.200000 Y102.000000 Z1.000000 I1.565666 J-0.591194
G03 X117.010470 Y100.886663 Z1.000000 I2.158127 J0.719376
G03 X122.000000 Y97.500000 Z1.000000 I47.359883 J64.405902
G03 X127.266540 Y94.488789 Z1.000000 I41.020617 J65.632987
G03 X128.100000 Y94.500000 Z1.000000 I0.406312 J0.780078
G03 X128.720210 Y95.143622 Z1.000000 I-1.678719 J2.238293
G03 X131.100000 Y99.000000 Z1.000000 I-34.779556 J24.125112
G02 X133.516368 Y102.654429 Z1.000000 I37.351527 J-22.071357
G02 X134.200000 Y103.000000 Z1.000000 I0.683632 J-0.503417
G02 X135.040468 Y102.797770 Z1.000000 I0.000000 J-1.847607
G02 X140.400000 Y100.000000 Z1.000000 I-155.360655 J-304.148120
G03 X145.521370 Y97.884582 Z1.000000 I10.352842 J17.806889
G03 X146.800000 Y98.300000 Z1.000000 I0.315923 J1.203088
G03 X150.892972 Y104.770455 Z1.000000 I-22.561925 J18.801604
G03 X152.000000 Y109.800000 Z1.000000 I-10.871818 J5.029545
G03 X150.486145 Y112.764800 Z1.000000 I-3.660125 J-0.000000
G03 X139.700000 Y118.600000 Z1.000000 I-27.588997 J-38.110722
G03 X138.675980 Y118.290619 Z1.000000 I-0.293094 J-0.879282
G03 X136.600000 Y114.600000 Z1.000000 I11.184362 J-8.720404
G01 X136.600000 Y114.600000 Z1.000000
G00 Z5.000000

(End cutting path id: path11710)


(Start cutting path id: path11708)
(Change tool to Default tool)

G00 Z5.000000
G00 X319.800000 Y118.800000

G01 Z1.000000 F100.0(Penetrate)
G03 X313.580484 Y115.349156 Z1.000000 I17.456802 J-38.792894 F400.000000
G03 X312.400000 Y113.800000 Z1.000000 I1.675589 J-2.501181
G03 X312.053587 Y111.907715 Z1.000000 I10.906047 J-2.974376
G03 X312.200000 Y111.500000 Z1.000000 I0.505515 J-0.048613
G03 X313.124702 Y111.364629 Z1.000000 I0.565373 J0.636045
G03 X320.225000 Y115.000000 Z1.000000 I-45.178638 J96.990615
G03 X327.030691 Y119.142394 Z1.000000 I-53.662898 J95.826603
G03 X327.800000 Y120.300000 Z1.000000 I-0.979773 J1.485559
G03 X327.019427 Y121.074565 Z1.000000 I-0.656198 J0.119309
G03 X319.800000 Y118.800000 Z1.000000 I6.013379 J-31.680802
G01 X319.800000 Y118.800000 Z1.000000
G00 Z5.000000

(End cutting path id: path11708)


(Start cutting path id: path11706)
(Change tool to Default tool)

G00 Z5.000000
G00 X279.100000 Y121.400000

G01 Z1.000000 F100.0(Penetrate)
G03 X279.377467 Y120.730136 Z1.000000 I0.947330 J-0.000000 F400.000000
G03 X279.700000 Y120.800000 Z1.000000 I0.138774 J0.138774
G03 X279.897212 Y122.070576 Z1.000000 I-2.380016 J1.020007
G03 X279.600000 Y122.700000 Z1.000000 I-1.026430 J-0.099794
G03 X279.302013 Y122.664667 Z1.000000 I-0.138749 J-0.104062
G03 X279.100000 Y121.400000 Z1.000000 I2.385181 J-1.029467
G01 X279.100000 Y121.400000 Z1.000000
G00 Z5.000000

(End cutting path id: path11706)


(Start cutting path id: path11704)
(Change tool to Default tool)

G00 Z5.000000
G00 X20.300000 Y120.300000

G01 Z1.000000 F100.0(Penetrate)
G03 X19.653715 Y117.959213 Z1.000000 I3.225066 J-2.150044 F400.000000
G03 X20.500000 Y116.400000 Z1.000000 I2.045158 J0.100766
G03 X22.837516 Y116.047884 Z1.000000 I1.495686 J1.994248
G03 X24.000000 Y117.700000 Z1.000000 I-0.592747 J1.652116
G02 X24.458214 Y118.526750 Z1.000000 I0.974954 J0.000000
G02 X25.500000 Y118.600000 Z1.000000 I0.589820 J-0.943673
G03 X26.100951 Y118.859139 Z1.000000 I0.155363 J0.466089
G03 X26.100000 Y119.900000 Z1.000000 I-1.118348 J0.519409
G03 X23.236077 Y121.745653 Z1.000000 I-3.134396 J-1.718862
G03 X20.300000 Y120.300000 Z1.000000 I-0.243552 J-3.209722
G01 X20.300000 Y120.300000 Z1.000000
G00 Z5.000000

(End cutting path id: path11704)


(Start cutting path id: path11702)
(Change tool to Default tool)

G00 Z5.000000
G00 X173.100000 Y121.900000

G01 Z1.000000 F100.0(Penetrate)
G03 X166.011057 Y118.373846 Z1.000000 I11.123087 J-31.250579 F400.000000
G03 X165.000000 Y116.500000 Z1.000000 I1.230919 J-1.873846
G03 X165.722554 Y115.927200 Z1.000000 I0.588318 J0.000000
G03 X172.650000 Y117.975000 Z1.000000 I-14.408976 J61.484976
G03 X179.649606 Y120.868624 Z1.000000 I-27.029487 J75.296428
G03 X181.200000 Y122.300000 Z1.000000 I-1.489043 J3.168197
G03 X180.496598 Y123.387485 Z1.000000 I-0.659985 J0.344340
G03 X173.100000 Y121.900000 Z1.000000 I1.575619 J-26.968579
G01 X173.100000 Y121.900000 Z1.000000
G00 Z5.000000

(End cutting path id: path11702)


(Start cutting path id: path11700)
(Change tool to Default tool)

G00 Z5.000000
G00 X35.600000 Y123.400000

G01 Z1.000000 F100.0(Penetrate)
G03 X34.404681 Y121.723702 Z1.000000 I3.069269 J-3.452928 F400.000000
G03 X34.000000 Y119.700000 Z1.000000 I4.857655 J-2.023702
G03 X34.427357 Y118.889224 Z1.000000 I0.982776 J0.000000
G03 X35.000000 Y119.000000 Z1.000000 I0.231628 J0.338120
G02 X36.136821 Y119.694673 Z1.000000 I1.317291 J-0.878194
G02 X38.000000 Y119.300000 Z1.000000 I0.342001 J-2.980676
G03 X39.998466 Y118.126730 Z1.000000 I17.351208 J27.266184
G03 X40.500000 Y118.000000 Z1.000000 I0.501534 J0.929042
G03 X41.844650 Y119.486015 Z1.000000 I0.000000 J1.351374
G03 X39.800000 Y123.800000 Z1.000000 I-7.066177 J-0.707542
G03 X37.880000 Y124.483220 Z1.000000 I-1.679033 J-1.679033
G03 X35.600000 Y123.400000 Z1.000000 I0.382045 J-3.745264
G01 X35.600000 Y123.400000 Z1.000000
G00 Z5.000000

(End cutting path id: path11700)


(Start cutting path id: path11698)
(Change tool to Default tool)

G00 Z5.000000
G00 X201.300000 Y122.900000

G01 Z1.000000 F100.0(Penetrate)
G03 X195.467723 Y119.605034 Z1.000000 I19.183947 J-40.765888 F400.000000
G03 X194.000000 Y118.000000 Z1.000000 I2.525813 J-3.783327
G03 X193.720190 Y116.627274 Z1.000000 I2.032525 J-1.129181
G03 X194.325000 Y116.150000 Z1.000000 I0.535204 J0.056370
G03 X195.937933 Y116.564200 Z1.000000 I-0.887339 J6.802934
G03 X202.000000 Y119.100000 Z1.000000 I-51.717699 J132.149870
G03 X208.296386 Y122.738467 Z1.000000 I-16.389411 J35.629153
G03 X209.000000 Y124.100000 Z1.000000 I-0.965514 J1.361533
G03 X207.988766 Y124.960279 Z1.000000 I-0.871546 J0.000000
G03 X201.300000 Y122.900000 Z1.000000 I4.082310 J-25.141155
G01 X201.300000 Y122.900000 Z1.000000
G00 Z5.000000

(End cutting path id: path11698)


(Start cutting path id: path11696)
(Change tool to Default tool)

G00 Z5.000000
G00 X389.100000 Y128.200000

G01 Z1.000000 F100.0(Penetrate)
G03 X388.354827 Y125.588496 Z1.000000 I6.017561 J-3.129132 F400.000000
G03 X388.900000 Y125.000000 Z1.000000 I0.545173 J-0.041728
G03 X389.476207 Y125.330137 Z1.000000 I0.000000 J0.667912
G03 X390.300000 Y127.137500 Z1.000000 I-8.369488 J4.906221
G03 X390.745856 Y129.081871 Z1.000000 I-9.495014 J3.200566
G03 X390.500000 Y129.800000 Z1.000000 I-0.855835 J0.108149
G03 X390.201304 Y129.789139 Z1.000000 I-0.144298 J-0.144298
G03 X389.100000 Y128.200000 Z1.000000 I6.869294 J-5.936738
G01 X389.100000 Y128.200000 Z1.000000
G00 Z5.000000

(End cutting path id: path11696)


(Start cutting path id: path11694)
(Change tool to Default tool)

G00 Z5.000000
G00 X273.000000 Y131.500000

G01 Z1.000000 F100.0(Penetrate)
G03 X272.438934 Y129.968320 Z1.000000 I1.810168 J-1.531680 F400.000000
G03 X273.000000 Y128.700000 Z1.000000 I1.714084 J-0.000000
G03 X274.080793 Y128.315317 Z1.000000 I1.007163 J1.119070
G03 X274.700000 Y128.800000 Z1.000000 I-0.033317 J0.680440
G02 X275.337704 Y129.464773 Z1.000000 I1.389683 J-0.694842
G02 X276.100000 Y129.400000 Z1.000000 I0.332776 J-0.601674
G03 X276.772727 Y129.884874 Z1.000000 I0.226018 J0.395532
G03 X275.600000 Y131.900000 Z1.000000 I-3.531253 J-0.706251
G03 X274.357118 Y132.269235 Z1.000000 I-1.009517 J-1.121685
G03 X273.000000 Y131.500000 Z1.000000 I0.342036 J-2.185197
G01 X273.000000 Y131.500000 Z1.000000
G00 Z5.000000

(End cutting path id: path11694)


(Start cutting path id: path11692)
(Change tool to Default tool)

G00 Z5.000000
G00 X282.600000 Y132.500000

G01 Z1.000000 F100.0(Penetrate)
G02 X282.031266 Y130.875855 Z1.000000 I-54.132477 J18.044159 F400.000000
G03 X282.000000 Y130.700000 Z1.000000 I0.478915 J-0.175855
G03 X282.089129 Y130.595795 Z1.000000 I0.105480 J0.000000
G03 X284.600000 Y130.400000 Z1.000000 I2.510871 J16.001755
G03 X286.363273 Y130.813918 Z1.000000 I0.298847 J2.689622
G03 X286.800000 Y131.800000 Z1.000000 I-0.530783 J0.824831
G03 X284.782393 Y133.759890 Z1.000000 I-2.359290 J-0.410311
G03 X282.600000 Y132.500000 Z1.000000 I-0.290703 J-2.016566
G01 X282.600000 Y132.500000 Z1.000000
G00 Z5.000000

(End cutting path id: path11692)


(Start cutting path id: path11690)
(Change tool to Default tool)

G00 Z5.000000
G00 X556.500000 Y137.000000

G01 Z1.000000 F100.0(Penetrate)
G03 X556.036080 Y135.822106 Z1.000000 I2.493689 J-1.662459 F400.000000
G03 X555.300000 Y130.100000 Z1.000000 I82.627933 J-13.537482
G03 X555.615193 Y124.581771 Z1.000000 I17.392100 J-1.774704
G03 X557.800000 Y118.400000 Z1.000000 I25.906621 J5.679136
G02 X564.700400 Y101.786056 Z1.000000 I-107.042965 J-54.198970
G02 X564.400000 Y98.800000 Z1.000000 I-3.503566 J-1.155676
G02 X563.283731 Y98.137245 Z1.000000 I-1.172602 J0.703561
G02 X558.187500 Y98.337500 Z1.000000 I-1.306696 J31.692600
G02 X553.148529 Y99.277415 Z1.000000 I4.739219 J39.384540
G02 X550.400000 Y100.500000 Z1.000000 I2.198233 J8.642728
G02 X548.660480 Y102.423543 Z1.000000 I3.177528 J4.621859
G02 X548.000000 Y105.000000 Z1.000000 I4.694988 J2.576457
G03 X547.348371 Y107.501940 Z1.000000 I-5.128932 J0.000000
G03 X546.487500 Y107.975000 Z1.000000 I-0.808758 J-0.451938
G03 X545.372914 Y107.482496 Z1.000000 I0.097338 J-1.727747
G03 X543.400000 Y104.800000 Z1.000000 I7.283388 J-7.423528
G02 X539.118501 Y99.437218 Z1.000000 I-14.714835 J7.357418
G02 X535.100000 Y98.000000 Z1.000000 I-4.018501 J4.899308
G02 X530.312578 Y99.679661 Z1.000000 I-0.000000 J7.662459
G02 X529.700000 Y102.300000 Z1.000000 I1.360130 J1.699742
G03 X530.497925 Y104.791806 Z1.000000 I-7.640749 J3.820375
G03 X530.300000 Y105.400000 Z1.000000 I-0.696468 J0.109651
G03 X528.438276 Y105.545089 Z1.000000 I-1.015670 J-1.015670
G03 X523.600000 Y100.500000 Z1.000000 I11.726374 J-16.088189
G02 X517.832157 Y95.570683 Z1.000000 I-11.475901 J7.588902
G02 X508.300000 Y93.500000 Z1.000000 I-9.532157 J20.904767
G02 X502.786310 Y93.874203 Z1.000000 I-0.000000 J40.807842
G02 X501.162500 Y94.612500 Z1.000000 I0.419728 J3.078000
G02 X500.622715 Y96.031538 Z1.000000 I1.062316 J1.216275
G02 X501.600000 Y99.400000 Z1.000000 I11.163614 J-1.412876
G03 X502.593444 Y102.914201 Z1.000000 I-9.484545 J4.578746
G03 X502.100000 Y104.300000 Z1.000000 I-1.705924 J0.173319
G03 X500.879057 Y104.453289 Z1.000000 I-0.709125 J-0.709125
G03 X497.200000 Y101.400000 Z1.000000 I7.797438 J-13.138694
G02 X493.261390 Y97.450917 Z1.000000 I-46.719008 J42.656485
G02 X491.300000 Y96.100000 Z1.000000 I-5.791542 J6.309388
G02 X484.475190 Y94.131657 Z1.000000 I-8.502669 J16.665231
G02 X455.600000 Y92.900000 Z1.000000 I-27.482289 J305.206435
G02 X433.690245 Y93.551431 Z1.000000 I1.324779 J413.331006
G02 X424.187500 Y95.000000 Z1.000000 I2.847301 J50.572257
G02 X415.842511 Y98.600138 Z1.000000 I6.912163 J27.493903
G02 X407.700000 Y104.900000 Z1.000000 I30.747891 J48.153342
G03 X403.091972 Y107.778751 Z1.000000 I-10.099696 J-11.039202
G03 X401.500000 Y107.300000 Z1.000000 I-0.492562 J-1.248338
G02 X399.714998 Y105.714305 Z1.000000 I-4.511669 J3.281214
G02 X396.500000 Y104.600000 Z1.000000 I-4.721648 J8.427809
G03 X389.105532 Y100.484906 Z1.000000 I2.414918 J-13.040556
G03 X383.400000 Y90.400000 Z1.000000 I19.342121 J-17.599202
G03 X382.371493 Y84.596609 Z1.000000 I25.313812 J-7.479081
G03 X382.200000 Y73.100000 Z1.000000 I118.072688 J-7.510850
G03 X382.992743 Y61.536060 Z1.000000 I255.329896 J11.694499
G03 X385.525000 Y35.637500 Z1.000000 I2042.493754 J186.633722
G03 X388.582639 Y8.370235 Z1.000000 I1736.176510 J180.882608
G03 X389.000000 Y8.000000 Z1.000000 I0.417361 J0.050126
G03 X390.646984 Y9.381252 Z1.000000 I0.000000 J1.672545
G03 X392.000000 Y24.800000 Z1.000000 I-87.178226 J15.418748
G03 X391.672938 Y32.591883 Z1.000000 I-92.979858 J-0.000000
G03 X390.000000 Y48.600000 Z1.000000 I-396.486651 J-33.343597
G02 X387.292378 Y80.522044 Z1.000000 I400.094104 J50.011763
G02 X388.400000 Y84.500000 Z1.000000 I6.628060 J0.297664
G02 X393.289930 Y89.727596 Z1.000000 I17.303182 J-11.284684
G02 X397.100000 Y91.000000 Z1.000000 I3.810070 J-5.068208
G02 X397.445083 Y90.753430 Z1.000000 I0.000000 J-0.364763
G02 X398.800000 Y85.800000 Z1.000000 I-38.594670 J-13.218862
G03 X405.277127 Y73.932113 Z1.000000 I25.361759 J6.140215
G03 X412.800000 Y71.200000 Z1.000000 I6.513181 J6.210872
G03 X414.940559 Y72.608145 Z1.000000 I-0.311641 J2.804767
G03 X417.500000 Y79.400000 Z1.000000 I-20.125609 J11.462307
G02 X418.671018 Y81.272881 Z1.000000 I3.193584 J-0.694257
G02 X420.300000 Y81.600000 Z1.000000 I1.137181 J-1.443365
G03 X422.544522 Y81.128916 Z1.000000 I3.163710 J9.491131
G03 X439.500000 Y79.800000 Z1.000000 I56.658502 J614.067956
G03 X476.137543 Y80.167762 Z1.000000 I15.803619 J250.750761
G03 X489.200000 Y83.900000 Z1.000000 I-2.902600 J34.883568
G01 X494.900000 Y86.800000 Z1.000000
G01 X496.400000 Y84.400000 Z1.000000
G03 X505.748306 Y79.489971 Z1.000000 I9.176960 J6.117973
G03 X519.100000 Y84.700000 Z1.000000 I-0.318992 J20.530625
G01 X523.100000 Y88.300000 Z1.000000
G01 X525.300000 Y86.100000 Z1.000000
G03 X532.953187 Y83.141929 Z1.000000 I7.651367 J8.416503
G03 X540.000000 Y86.200000 Z1.000000 I-0.001545 J9.651696
G03 X541.840614 Y88.420788 Z1.000000 I-21.320914 J19.544171
G03 X542.000000 Y88.900000 Z1.000000 I-0.640711 J0.479212
G02 X542.109230 Y89.413499 Z1.000000 I1.261612 J0.000000
G02 X542.900000 Y90.900000 Z1.000000 I11.040725 J-4.919720
G02 X544.008593 Y91.300492 Z1.000000 I0.825436 J-0.550291
G02 X546.900000 Y89.700000 Z1.000000 I-2.199556 J-7.385677
G03 X553.978689 Y85.843771 Z1.000000 I13.121142 J15.660717
G03 X559.900000 Y85.700000 Z1.000000 I3.214496 J10.382730
G03 X567.791266 Y94.888893 Z1.000000 I-2.306382 J9.963572
G03 X563.000000 Y126.500000 Z1.000000 I-71.059926 J5.398171
G03 X557.687148 Y136.997656 Z1.000000 I-63.442343 J-25.514855
G03 X556.500000 Y137.000000 Z1.000000 I-0.594303 J-0.368184
G01 X556.500000 Y137.000000 Z1.000000
G00 Z5.000000

(End cutting path id: path11690)


(Start cutting path id: path11688)
(Change tool to Default tool)

G00 Z5.000000
G00 X530.600000 Y137.400000

G01 Z1.000000 F100.0(Penetrate)
G03 X530.184123 Y135.746728 Z1.000000 I10.746932 J-3.582311 F400.000000
G03 X530.000000 Y133.600000 Z1.000000 I12.422517 J-2.146728
G03 X530.799160 Y132.347429 Z1.000000 I1.381195 J0.000000
G03 X533.900000 Y131.800000 Z1.000000 I2.578317 J5.548675
G02 X537.558046 Y131.708732 Z1.000000 I1.450236 J-15.227474
G02 X538.400000 Y131.100000 Z1.000000 I-0.162012 J-1.110715
G02 X538.329071 Y130.328636 Z1.000000 I-0.491119 J-0.343783
G02 X534.787500 Y127.325000 Z1.000000 I-22.226711 J22.617654
G02 X530.847580 Y124.749485 Z1.000000 I-27.129474 J37.200264
G02 X527.800000 Y123.400000 Z1.000000 I-7.578886 J12.999650
G03 X525.997343 Y122.262563 Z1.000000 I1.199393 J-3.898027
G03 X526.062500 Y121.700000 Z1.000000 I0.275312 J-0.253168
G03 X527.178723 Y121.280674 Z1.000000 I1.424976 J2.097881
G03 X531.000000 Y121.200000 Z1.000000 I2.308898 J18.824060
G03 X537.540317 Y123.636977 Z1.000000 I-1.503092 J14.028857
G03 X541.600000 Y128.700000 Z1.000000 I-6.505348 J9.375281
G03 X542.503107 Y135.067733 Z1.000000 I-11.675796 J4.903834
G03 X540.500000 Y137.800000 Z1.000000 I-3.405583 J-0.396332
G03 X533.123712 Y139.230915 Z1.000000 I-6.756848 J-15.103542
G03 X530.600000 Y137.400000 Z1.000000 I0.104873 J-2.799341
G01 X530.600000 Y137.400000 Z1.000000
G00 Z5.000000

(End cutting path id: path11688)


(Start cutting path id: path11686)
(Change tool to Default tool)

G00 Z5.000000
G00 X51.200000 Y140.500000

G01 Z1.000000 F100.0(Penetrate)
G03 X52.147537 Y137.135737 Z1.000000 I8.361598 J0.539458 F400.000000
G03 X53.500000 Y136.200000 Z1.000000 I1.572956 J0.828208
G03 X56.437191 Y136.978933 Z1.000000 I0.476563 J4.130211
G03 X58.400000 Y139.800000 Z1.000000 I-3.142284 J4.279664
G03 X58.025537 Y141.045531 Z1.000000 I-1.071102 J0.357034
G03 X56.400000 Y141.400000 Z1.000000 I-1.179441 J-1.504265
G02 X53.939765 Y141.442051 Z1.000000 I-1.151734 J4.606935
G02 X52.300000 Y142.600000 Z1.000000 I0.839552 J2.928889
G03 X51.394865 Y143.581563 Z1.000000 I-5.768328 J-4.411074
G03 X51.150000 Y143.537500 Z1.000000 I-0.105371 J-0.116843
G03 X51.049563 Y143.096949 Z1.000000 I0.788828 J-0.411563
G03 X51.200000 Y140.500000 Z1.000000 I51.433315 J1.676624
G01 X51.200000 Y140.500000 Z1.000000
G00 Z5.000000

(End cutting path id: path11686)


(Start cutting path id: path11684)
(Change tool to Default tool)

G00 Z5.000000
G00 X396.400000 Y144.200000

G01 Z1.000000 F100.0(Penetrate)
G03 X393.021081 Y140.425456 Z1.000000 I4.823475 J-7.717560 F400.000000
G03 X393.400000 Y138.200000 Z1.000000 I1.758863 J-0.845512
G03 X393.751472 Y138.200000 Z1.000000 I0.175736 J0.175736
G03 X394.000000 Y138.800000 Z1.000000 I-0.600000 J0.600000
G02 X395.470740 Y140.231735 Z1.000000 I1.432252 J0.000000
G02 X398.800000 Y138.800000 Z1.000000 I-0.131520 J-4.892515
G03 X399.482751 Y138.822822 Z1.000000 I0.330703 J0.330703
G03 X400.000000 Y140.200000 Z1.000000 I-1.574747 J1.377178
G03 X398.555074 Y143.948203 Z1.000000 I-5.583967 J0.000000
G03 X396.400000 Y144.200000 Z1.000000 I-1.221488 J-1.106146
G01 X396.400000 Y144.200000 Z1.000000
G00 Z5.000000

(End cutting path id: path11684)


(Start cutting path id: path11682)
(Change tool to Default tool)

G00 Z5.000000
G00 X383.000000 Y151.500000

G01 Z1.000000 F100.0(Penetrate)
G03 X382.362839 Y149.939482 Z1.000000 I2.463851 J-1.916329 F400.000000
G03 X382.500000 Y147.000000 Z1.000000 I9.125927 J-1.047110
G02 X382.503099 Y144.017922 Z1.000000 I-6.891727 J-1.498202
G02 X381.400000 Y141.900000 Z1.000000 I-4.404856 J0.947995
G03 X380.618203 Y139.982625 Z1.000000 I2.323775 J-2.065578
G03 X381.300000 Y138.300000 Z1.000000 I2.162509 J-0.103198
G03 X382.964750 Y137.711866 Z1.000000 I1.447728 J1.447728
G03 X384.900000 Y138.700000 Z1.000000 I-0.321883 J3.019554
G03 X385.885744 Y140.718527 Z1.000000 I-2.740554 J2.588301
G03 X385.400000 Y142.200000 Z1.000000 I-1.706311 J0.260906
G02 X384.560871 Y145.072845 Z1.000000 I2.202219 J2.202219
G02 X386.600000 Y147.400000 Z1.000000 I3.136892 J-0.691694
G02 X388.764394 Y146.393261 Z1.000000 I0.601427 J-1.536979
G02 X389.700000 Y138.200000 Z1.000000 I-18.439748 J-6.255725
G03 X389.763990 Y134.076402 Z1.000000 I15.325586 J-1.824474
G03 X390.300000 Y133.900000 Z1.000000 I0.312527 J0.047081
G03 X391.016195 Y135.323535 Z1.000000 I-1.795027 J1.795027
G03 X391.500000 Y141.900000 Z1.000000 I-44.455779 J6.576465
G03 X390.813938 Y148.563521 Z1.000000 I-32.703471 J-0.000000
G03 X389.600000 Y150.900000 Z1.000000 I-4.763710 J-0.991432
G03 X385.947047 Y152.729518 Z1.000000 I-4.223708 J-3.871733
G03 X383.000000 Y151.500000 Z1.000000 I-0.334790 J-3.344203
G01 X383.000000 Y151.500000 Z1.000000
G00 Z5.000000

(End cutting path id: path11682)


(Start cutting path id: path11680)
(Change tool to Default tool)

G00 Z5.000000
G00 X520.700000 Y154.000000

G01 Z1.000000 F100.0(Penetrate)
G03 X520.653378 Y152.361699 Z1.000000 I3.356179 J-0.915322 F400.000000
G03 X521.100000 Y152.000000 Z1.000000 I0.446622 J0.094892
G03 X521.856521 Y152.172050 Z1.000000 I0.000000 J1.749275
G03 X522.000000 Y152.400000 Z1.000000 I-0.109337 J0.227950
G02 X522.056801 Y152.755960 Z1.000000 I1.143763 J0.000000
G02 X522.600000 Y154.400000 Z1.000000 I311.893756 J-102.139479
G03 X522.675027 Y155.610803 Z1.000000 I-2.239486 J0.746495
G03 X522.200000 Y156.000000 Z1.000000 I-0.475027 J-0.095294
G03 X521.529299 Y155.669746 Z1.000000 I0.000000 J-0.846177
G03 X520.700000 Y154.000000 Z1.000000 I3.818545 J-2.937340
G01 X520.700000 Y154.000000 Z1.000000
G00 Z5.000000

(End cutting path id: path11680)


(Start cutting path id: path11678)
(Change tool to Default tool)

G00 Z5.000000
G00 X56.300000 Y154.800000

G01 Z1.000000 F100.0(Penetrate)
G03 X54.472892 Y151.677547 Z1.000000 I11.385287 J-8.757913 F400.000000
G03 X54.800000 Y151.400000 Z1.000000 I0.206550 J-0.088100
G03 X58.328875 Y154.891472 Z1.000000 I-5.015934 J8.598745
G03 X57.700000 Y156.000000 Z1.000000 I-0.628875 J0.375882
G03 X57.242242 Y155.814809 Z1.000000 I-0.000000 J-0.658343
G03 X56.300000 Y154.800000 Z1.000000 I8.986841 J-9.289044
G01 X56.300000 Y154.800000 Z1.000000
G00 Z5.000000

(End cutting path id: path11678)


(Start cutting path id: path11676)
(Change tool to Default tool)

G00 Z5.000000
G00 X149.000000 Y166.000000

G01 Z1.000000 F100.0(Penetrate)
G03 X149.195697 Y164.164928 Z1.000000 I8.701698 J0.000000 F400.000000
G03 X149.400000 Y164.000000 Z1.000000 I0.204303 J0.044076
G03 X149.642214 Y164.157197 Z1.000000 I0.000000 J0.265203
G03 X150.300000 Y166.000000 Z1.000000 I-11.676343 J5.206657
G03 X150.346622 Y167.638301 Z1.000000 I-3.356179 J0.915322
G03 X149.900000 Y168.000000 Z1.000000 I-0.446622 J-0.094892
G03 X149.350294 Y167.643456 Z1.000000 I0.000000 J-0.602030
G03 X149.000000 Y166.000000 Z1.000000 I3.680114 J-1.643456
G01 X149.000000 Y166.000000 Z1.000000
G00 Z5.000000

(End cutting path id: path11676)


(Start cutting path id: path11674)
(Change tool to Default tool)

G00 Z5.000000
G00 X407.200000 Y165.000000

G01 Z1.000000 F100.0(Penetrate)
G03 X404.389315 Y161.207262 Z1.000000 I38.098320 J-31.171353 F400.000000
G03 X404.500000 Y161.000000 Z1.000000 I0.110685 J-0.074076
G03 X409.014839 Y162.217867 Z1.000000 I-0.000000 J8.977572
G03 X414.100000 Y166.700000 Z1.000000 I-8.774357 J15.080588
G03 X414.960480 Y167.883550 Z1.000000 I-24.011707 J18.361893
G03 X414.912500 Y167.975000 Z1.000000 I-0.047980 J0.033138
G03 X414.695050 Y167.912549 Z1.000000 I0.000000 J-0.409798
G03 X412.800000 Y166.700000 Z1.000000 I60.494853 J-96.632401
G02 X410.633987 Y165.674936 Z1.000000 I-5.024221 J7.815456
G02 X410.125000 Y165.750000 Z1.000000 I-0.178573 J0.552330
G02 X410.022461 Y166.136474 Z1.000000 I0.175418 J0.253382
G02 X411.200000 Y167.800000 Z1.000000 I5.451234 J-2.610169
G03 X411.715686 Y168.728342 Z1.000000 I-1.366452 J1.366452
G03 X411.500000 Y169.000000 Z1.000000 I-0.215686 J0.050206
G03 X410.591237 Y168.639032 Z1.000000 I0.000000 J-1.324422
G03 X407.200000 Y165.000000 Z1.000000 I26.502705 J-28.097712
G01 X407.200000 Y165.000000 Z1.000000
G00 Z5.000000

(End cutting path id: path11674)


(Start cutting path id: path11672)
(Change tool to Default tool)

G00 Z5.000000
G00 X166.100000 Y165.300000

G01 Z1.000000 F100.0(Penetrate)
G03 X160.856531 Y157.900000 Z1.000000 I19.070894 J-19.070894 F400.000000
G03 X161.300000 Y155.300000 Z1.000000 I2.056398 J-0.987071
G03 X161.948690 Y155.001713 Z1.000000 I0.727411 J0.727411
G03 X172.700000 Y154.500000 Z1.000000 I13.744425 J179.085218
G02 X183.302038 Y153.444815 Z1.000000 I-2.838154 J-82.306475
G02 X188.900000 Y151.800000 Z1.000000 I-3.916905 J-23.679244
G01 X194.200000 Y149.500000 Z1.000000
G01 X180.300000 Y144.700000 Z1.000000
G02 X157.397304 Y140.462493 Z1.000000 I-26.431988 J78.847965
G02 X149.600000 Y143.500000 Z1.000000 I-0.441486 J10.393325
G02 X148.526930 Y145.432272 Z1.000000 I2.842844 J2.842844
G02 X148.500000 Y148.000000 Z1.000000 I5.782677 J1.344653
G03 X148.564836 Y150.642393 Z1.000000 I-6.272581 J1.475901
G03 X148.000000 Y151.500000 Z1.000000 I-1.295550 J-0.238464
G03 X144.863787 Y151.299812 Z1.000000 I-1.426528 J-2.318108
G03 X143.000000 Y147.400000 Z1.000000 I3.148113 J-3.899812
G02 X141.641199 Y143.659592 Z1.000000 I-5.827563 J0.000000
G02 X135.900000 Y138.900000 Z1.000000 I-15.823440 J13.244410
G02 X117.376214 Y136.582631 Z1.000000 I-12.285010 J23.006474
G02 X95.000000 Y149.000000 Z1.000000 I11.683050 J47.422724
G03 X90.204526 Y152.775638 Z1.000000 I-20.294379 J-20.842875
G03 X89.400000 Y152.500000 Z1.000000 I-0.291077 J-0.462347
G02 X88.386480 Y151.417598 Z1.000000 I-2.327681 J1.163841
G02 X84.800000 Y150.000000 Z1.000000 I-6.391590 J10.924887
G03 X76.671964 Y145.342113 Z1.000000 I5.367922 J-18.787727
G03 X71.600000 Y137.200000 Z1.000000 I13.326133 J-13.952039
G03 X69.871912 Y127.217433 Z1.000000 I35.709690 J-11.322585
G03 X70.500000 Y105.900000 Z1.000000 I163.476784 J-5.851356
G02 X73.725004 Y67.144727 Z1.000000 I-1686.100989 J-159.819999
G02 X73.400000 Y66.100000 Z1.000000 I-1.496826 J-0.107269
G02 X71.042613 Y65.485953 Z1.000000 I-1.620462 J1.388967
G02 X47.600000 Y75.700000 Z1.000000 I75.683352 J205.712477
G02 X27.281055 Y86.942822 Z1.000000 I138.852802 J274.928549
G02 X16.300000 Y94.600000 Z1.000000 I52.589520 J87.120397
G03 X12.071532 Y97.711047 Z1.000000 I-29.795388 J-36.068101
G03 X11.100000 Y98.000000 Z1.000000 I-0.971532 J-1.488791
G03 X10.447675 Y96.692425 Z1.000000 I0.000000 J-0.816504
G03 X22.900000 Y82.300000 Z1.000000 I111.949551 J84.275656
G03 X44.699110 Y63.663434 Z1.000000 I120.509113 J118.891541
G03 X61.700000 Y54.400000 Z1.000000 I45.772960 J63.773360
G02 X70.473548 Y50.919291 Z1.000000 I-219.416772 J-565.864295
G03 X72.800000 Y50.000000 Z1.000000 I51.439085 J126.773552
G02 X74.144349 Y48.433892 Z1.000000 I-0.997234 J-2.216077
G02 X75.100000 Y41.800000 Z1.000000 I-25.357760 J-7.038713
G03 X75.315662 Y34.530803 Z1.000000 I122.617374 J-0.000000
G03 X75.800000 Y30.500000 Z1.000000 I33.642566 J1.997966
G01 X76.600000 Y26.500000 Z1.000000
G01 X78.300000 Y33.200000 Z1.000000
G03 X79.664185 Y39.896644 Z1.000000 I-88.214848 J21.457666
G03 X80.000000 Y44.000000 Z1.000000 I-24.901707 J4.103356
G02 X80.206761 Y47.826573 Z1.000000 I35.513065 J-0.000000
G02 X80.400000 Y48.000000 Z1.000000 I0.193239 J-0.020944
G02 X80.931081 Y47.944884 Z1.000000 I0.000000 J-2.586237
G03 X92.200000 Y45.600000 Z1.000000 I710.402538 J3385.764192
G03 X124.859586 Y40.508533 Z1.000000 I58.683206 J269.133326
G03 X166.000000 Y38.500000 Z1.000000 I42.466371 J447.490837
G03 X197.452544 Y39.154000 Z1.000000 I0.000000 J756.643806
G03 X208.500000 Y40.300000 Z1.000000 I-3.738698 J89.862925
G03 X241.033690 Y48.361499 Z1.000000 I-33.067418 J203.128424
G03 X258.000000 Y56.900000 Z1.000000 I-21.414794 J63.677552
G03 X262.844193 Y61.278123 Z1.000000 I-13.517027 J19.824973
G03 X267.000000 Y67.500000 Z1.000000 I-25.953680 J21.834204
G03 X269.586969 Y74.558700 Z1.000000 I-26.754392 J13.808718
G03 X270.500000 Y82.600000 Z1.000000 I-34.954376 J8.041300
G02 X271.067030 Y90.366773 Z1.000000 I53.475343 J0.000000
G02 X271.800000 Y91.000000 Z1.000000 I0.732970 J-0.107598
G03 X273.036566 Y91.205310 Z1.000000 I0.000000 J3.826520
G03 X282.200000 Y94.600000 Z1.000000 I-61.392990 J179.785751
G02 X293.795502 Y96.745216 Z1.000000 I11.451533 J-29.487699
G02 X301.200000 Y94.500000 Z1.000000 I-0.061603 J-13.535416
G03 X304.645405 Y93.160170 Z1.000000 I4.581321 J6.681093
G03 X305.900000 Y93.800000 Z1.000000 I0.171795 J1.213077
G03 X306.601796 Y95.688493 Z1.000000 I-8.370620 J4.185310
G03 X307.500000 Y100.700000 Z1.000000 I-34.979273 J8.855522
G01 X308.200000 Y105.600000 Z1.000000
G01 X301.800000 Y108.700000 Z1.000000
G02 X295.685274 Y112.016795 Z1.000000 I33.888673 J69.770797
G02 X294.300000 Y113.100000 Z1.000000 I3.733281 J6.201759
G02 X294.259603 Y116.509225 Z1.000000 I2.250982 J1.731525
G02 X300.700000 Y121.800000 Z1.000000 I13.533653 J-9.909058
G02 X306.715625 Y123.534876 Z1.000000 I8.912995 J-19.608590
G02 X321.000000 Y124.500000 Z1.000000 I14.284375 J-105.225789
G02 X335.437397 Y123.843350 Z1.000000 I-0.000000 J-159.041920
G02 X340.900000 Y122.700000 Z1.000000 I-2.199509 J-24.129689
G01 X346.300000 Y120.900000 Z1.000000
G01 X350.200000 Y124.800000 Z1.000000
G01 X354.200000 Y128.700000 Z1.000000
G01 X346.300000 Y131.500000 Z1.000000
G02 X334.409336 Y136.511342 Z1.000000 I36.852807 J104.054985
G02 X319.700000 Y144.600000 Z1.000000 I81.616784 J165.840130
G03 X306.602325 Y151.661785 Z1.000000 I-67.904059 J-110.266225
G03 X299.950000 Y153.575000 Z1.000000 I-9.370738 J-20.060619
G03 X293.622556 Y152.686526 Z1.000000 I-1.511034 J-12.214189
G03 X287.400000 Y148.600000 Z1.000000 I8.181632 J-19.238984
G03 X283.343984 Y144.250663 Z1.000000 I36.656683 J-38.250452
G03 X283.000000 Y143.300000 Z1.000000 I1.141675 J-0.950663
G03 X283.862679 Y142.261684 Z1.000000 I1.056195 J0.000000
G03 X297.800000 Y140.500000 Z1.000000 I22.001561 J118.049888
G02 X304.898599 Y139.415390 Z1.000000 I-2.348578 J-39.142974
G02 X309.000000 Y137.800000 Z1.000000 I-4.037575 J-16.265548
G02 X312.784558 Y135.321562 Z1.000000 I-24.974945 J-42.265291
G02 X313.000000 Y134.900000 Z1.000000 I-0.304722 J-0.421562
G02 X312.673525 Y134.457159 Z1.000000 I-0.463580 J0.000000
G02 X309.300000 Y133.600000 Z1.000000 I-10.013778 J32.344106
G03 X295.072758 Y126.215672 Z1.000000 I4.050209 J-25.201299
G03 X288.300000 Y112.000000 Z1.000000 I17.499208 J-17.058335
G02 X287.573440 Y108.521001 Z1.000000 I-17.850430 J1.912546
G02 X286.275000 Y106.937500 Z1.000000 I-2.621328 J0.825340
G02 X284.026820 Y106.205283 Z1.000000 I-3.055263 J5.563314
G02 X276.300000 Y105.400000 Z1.000000 I-20.878434 J162.859256
G01 X269.200000 Y104.700000 Z1.000000
G01 X265.500000 Y109.900000 Z1.000000
G03 X261.715007 Y114.262578 Z1.000000 I-24.936436 J-17.811740
G03 X260.800000 Y114.400000 Z1.000000 I-0.555247 J-0.582099
G03 X257.497518 Y110.568684 Z1.000000 I4.814090 J-7.488584
G03 X256.000000 Y103.600000 Z1.000000 I15.465593 J-6.968684
G03 X256.273575 Y101.812918 Z1.000000 I5.973692 J0.000000
G03 X259.500000 Y92.400000 Z1.000000 I179.815370 J56.375120
G02 X262.736603 Y82.813767 Z1.000000 I-113.642578 J-43.708684
G02 X263.600000 Y78.700000 Z1.000000 I-26.167688 J-7.639561
G02 X263.299669 Y74.577453 Z1.000000 I-9.140896 J-1.406292
G02 X261.200000 Y70.800000 Z1.000000 I-9.945026 J3.055600
G02 X247.381904 Y62.001993 Z1.000000 I-22.193302 J19.606353
G02 X206.712500 Y53.900000 Z1.000000 I-65.179254 J221.054257
G02 X165.218004 Y51.962984 Z1.000000 I-36.895451 J344.956146
G02 X119.000000 Y55.600000 Z1.000000 I4.711133 J355.347641
G02 X99.430671 Y58.991457 Z1.000000 I44.691847 J316.035202
G02 X82.800000 Y63.000000 Z1.000000 I50.953550 J247.899427
G01 X79.000000 Y64.100000 Z1.000000
G01 X79.000000 Y72.800000 Z1.000000
G03 X78.658129 Y81.485071 Z1.000000 I-110.490957 J0.000000
G03 X77.100000 Y98.000000 Z1.000000 I-537.538404 J-42.384002
G02 X75.001244 Y125.842508 Z1.000000 I322.630683 J38.320119
G02 X76.100000 Y129.900000 Z1.000000 I7.185037 J0.231830
G02 X81.958951 Y135.802953 Z1.000000 I15.941182 J-9.963239
G02 X84.900000 Y135.300000 Z1.000000 I1.192585 J-1.876746
G02 X85.424973 Y134.461167 Z1.000000 I-1.559990 J-1.559990
G02 X86.900000 Y129.500000 Z1.000000 I-55.586847 J-19.226635
G03 X90.071789 Y122.054023 Z1.000000 I23.411642 J5.574200
G03 X94.300000 Y118.000000 Z1.000000 I10.588546 J6.811549
G03 X100.754706 Y116.560967 Z1.000000 I5.231213 J8.268692
G03 X103.900000 Y119.100000 Z1.000000 I-0.480561 J3.812982
G03 X104.785602 Y122.434792 Z1.000000 I-26.339343 J8.779781
G03 X105.000000 Y124.600000 Z1.000000 I-10.826040 J2.165208
G02 X106.141284 Y125.873029 Z1.000000 I1.280633 J0.000000
G02 X113.500000 Y125.500000 Z1.000000 I2.521231 J-23.032827
G03 X124.480720 Y124.221463 Z1.000000 I12.895651 J62.961119
G03 X131.300000 Y125.100000 Z1.000000 I0.651319 J21.849605
G03 X138.531039 Y128.864532 Z1.000000 I-4.615465 J17.692614
G03 X143.000000 Y135.000000 Z1.000000 I-10.496228 J12.340546
G02 X144.406305 Y137.358356 Z1.000000 I8.373272 J-3.394570
G02 X145.375000 Y137.850000 Z1.000000 I1.048546 J-0.865830
G02 X146.409925 Y137.484267 Z1.000000 I0.083064 J-1.412094
G02 X148.200000 Y135.300000 Z1.000000 I-6.526024 J-7.173927
G03 X150.024495 Y132.635371 Z1.000000 I16.013036 J9.007333
G03 X152.500000 Y130.000000 Z1.000000 I21.253181 J17.483567
G03 X158.858406 Y127.756973 Z1.000000 I5.686366 J5.985648
G03 X177.700000 Y132.100000 Z1.000000 I-5.444282 J66.661500
G02 X199.049265 Y138.867584 Z1.000000 I69.526018 J-182.270913
G02 X211.500000 Y140.700000 Z1.000000 I15.053266 J-59.066802
G02 X222.504762 Y140.739854 Z1.000000 I5.939848 J-120.776913
G02 X226.700000 Y140.200000 Z1.000000 I-1.030347 J-24.577545
G01 X230.800000 Y139.300000 Z1.000000
G01 X233.400000 Y144.000000 Z1.000000
G03 X235.808804 Y148.827907 Z1.000000 I-76.271533 J41.069287
G03 X236.000000 Y149.700000 Z1.000000 I-1.893321 J0.872093
G03 X235.501741 Y150.324348 Z1.000000 I-0.640301 J0.000000
G03 X229.100000 Y151.300000 Z1.000000 I-9.921762 J-43.611285
G02 X216.641163 Y153.863255 Z1.000000 I4.805109 J54.915529
G02 X192.000000 Y163.600000 Z1.000000 I71.849450 J217.880781
G03 X181.305630 Y167.740451 Z1.000000 I-38.596779 J-83.810148
G03 X175.800000 Y168.800000 Z1.000000 I-7.256886 J-22.874278
G03 X170.452177 Y168.061989 Z1.000000 I-0.929334 J-13.010672
G03 X166.100000 Y165.300000 Z1.000000 I4.002187 J-11.116353
G01 X166.100000 Y165.300000 Z1.000000
G00 Z5.000000

(End cutting path id: path11672)


(Start cutting path id: path11670)
(Change tool to Default tool)

G00 Z5.000000
G00 X284.200000 Y164.800000

G01 Z1.000000 F100.0(Penetrate)
G03 X269.789710 Y156.979725 Z1.000000 I21.702540 J-57.177845 F400.000000
G03 X268.200000 Y153.100000 Z1.000000 I2.367319 J-3.235557
G03 X269.233144 Y152.428351 Z1.000000 I0.824194 J0.137366
G03 X282.300000 Y156.700000 Z1.000000 I-27.214779 J105.370657
G03 X295.456184 Y162.917055 Z1.000000 I-47.025477 J116.541398
G03 X297.100000 Y164.800000 Z1.000000 I-1.727791 J3.167367
G03 X297.576410 Y167.743912 Z1.000000 I-6.780052 J2.607712
G03 X296.575000 Y168.700000 Z1.000000 I-1.001410 J-0.046396
G03 X294.136423 Y168.308369 Z1.000000 I0.000000 J-7.787979
G03 X284.200000 Y164.800000 Z1.000000 I78.789705 J-238.973862
G01 X284.200000 Y164.800000 Z1.000000
G00 Z5.000000

(End cutting path id: path11670)


(Start cutting path id: path11668)
(Change tool to Default tool)

G00 Z5.000000
G00 X118.000000 Y167.400000

G01 Z1.000000 F100.0(Penetrate)
G03 X117.009302 Y164.041867 Z1.000000 I18.103776 J-7.166078 F400.000000
G03 X117.275000 Y162.900000 Z1.000000 I1.392794 J-0.277760
G03 X118.318634 Y162.283892 Z1.000000 I1.285490 J0.985543
G03 X122.100000 Y162.000000 Z1.000000 I3.781366 J25.041462
G02 X125.697866 Y161.264983 Z1.000000 I0.000000 J-9.173184
G02 X125.900000 Y160.400000 Z1.000000 I-0.215998 J-0.506585
G02 X124.402161 Y159.046534 Z1.000000 I-4.577616 J3.560368
G02 X118.800000 Y155.900000 Z1.000000 I-35.479448 J56.608041
G03 X113.431303 Y152.722735 Z1.000000 I19.738594 J-39.477188
G03 X113.000000 Y151.900000 Z1.000000 I0.569055 J-0.822735
G03 X113.603763 Y151.268716 Z1.000000 I0.631911 J0.000000
G03 X117.775000 Y151.487500 Z1.000000 I0.960964 J21.551568
G03 X122.067397 Y152.429227 Z1.000000 I-4.912540 J32.644624
G03 X124.800000 Y153.700000 Z1.000000 I-2.762011 J9.512694
G03 X129.987850 Y159.393034 Z1.000000 I-6.712205 J11.326846
G03 X130.800000 Y165.800000 Z1.000000 I-9.389295 J4.445149
G03 X128.767256 Y168.483184 Z1.000000 I-3.667415 J-0.666803
G03 X122.200000 Y170.000000 Z1.000000 I-6.567256 J-13.458494
G03 X119.513564 Y169.234563 Z1.000000 I0.000000 J-5.096976
G03 X118.000000 Y167.400000 Z1.000000 I1.958029 J-3.157074
G01 X118.000000 Y167.400000 Z1.000000
G00 Z5.000000

(End cutting path id: path11668)


(Start cutting path id: path11666)
(Change tool to Default tool)

G00 Z5.000000
G00 X349.100000 Y165.400000

G01 Z1.000000 F100.0(Penetrate)
G03 X347.549429 Y157.836993 Z1.000000 I23.439183 J-8.745964 F400.000000
G03 X348.600000 Y154.100000 Z1.000000 I6.138154 J-0.290566
G02 X349.739491 Y151.689136 Z1.000000 I-5.962039 J-4.292668
G02 X354.275000 Y133.325000 Z1.000000 I-540.952200 J-143.344613
G02 X358.087288 Y115.642525 Z1.000000 I-684.334799 J-156.792699
G02 X360.100000 Y104.000000 Z1.000000 I-204.783631 J-41.397395
G01 X361.400000 Y94.900000 Z1.000000
G01 X358.800000 Y92.400000 Z1.000000
G02 X352.422406 Y88.987704 Z1.000000 I-8.821622 J8.821622
G02 X346.200000 Y89.900000 Z1.000000 I-1.832909 J9.174879
G02 X344.558943 Y91.337810 Z1.000000 I2.392316 J4.385912
G02 X340.100000 Y98.500000 Z1.000000 I45.857146 J33.518236
G03 X335.588951 Y105.499479 Z1.000000 I-59.316361 J-33.275032
G03 X334.600000 Y106.000000 Z1.000000 I-0.988951 J-0.726745
G03 X333.644198 Y105.402014 Z1.000000 I0.000000 J-1.062856
G03 X332.100000 Y101.000000 Z1.000000 I18.232700 J-8.867765
G03 X331.923695 Y94.024570 Z1.000000 I18.763895 J-3.964203
G03 X334.500000 Y86.000000 Z1.000000 I27.308916 J4.341736
G02 X337.443838 Y79.006904 Z1.000000 I-52.079339 J-26.039670
G02 X338.000000 Y75.700000 Z1.000000 I-9.553235 J-3.306904
G02 X336.500323 Y70.212309 Z1.000000 I-10.790248 J-0.000000
G02 X330.050000 Y61.537500 Z1.000000 I-44.052991 J26.020920
G02 X322.000961 Y54.238632 Z1.000000 I-44.909632 J41.437815
G02 X314.300000 Y50.000000 Z1.000000 I-18.426884 J24.363830
G02 X301.171556 Y46.382166 Z1.000000 I-26.971292 J72.244531
G02 X295.000000 Y46.500000 Z1.000000 I-2.794501 J15.314582
G03 X292.301777 Y46.535235 Z1.000000 I-1.436074 J-6.641842
G03 X291.587500 Y46.037500 Z1.000000 I0.197495 J-1.044798
G03 X291.638904 Y45.340431 Z1.000000 I0.520124 J-0.312074
G03 X293.500000 Y44.000000 Z1.000000 I3.460356 J2.842249
G03 X297.214596 Y42.984992 Z1.000000 I6.657668 J17.060274
G03 X308.287500 Y41.437500 Z1.000000 I39.841467 J244.691909
G03 X319.527233 Y40.390155 Z1.000000 I28.004224 J239.697175
G03 X322.400000 Y40.600000 Z1.000000 I0.704766 J10.120707
G03 X326.827711 Y42.953261 Z1.000000 I-1.934588 J8.982018
G03 X333.875000 Y51.262500 Z1.000000 I-36.866989 J38.411000
G03 X339.383820 Y60.732400 Z1.000000 I-61.083361 J41.870590
G03 X343.400000 Y71.300000 Z1.000000 I-56.775080 J27.624140
G02 X345.988515 Y75.776159 Z1.000000 I10.035818 J-2.817072
G02 X348.900000 Y77.000000 Z1.000000 I2.911485 J-2.851251
G03 X352.494719 Y77.562232 Z1.000000 I-0.000000 J11.772820
G03 X356.100000 Y79.300000 Z1.000000 I-4.414660 J13.767680
G03 X361.962228 Y85.681496 Z1.000000 I-10.240441 J15.290522
G03 X365.300000 Y96.612500 Z1.000000 I-24.101399 J13.334435
G03 X365.110810 Y109.056930 Z1.000000 I-60.544908 J5.303204
G03 X361.000000 Y134.700000 Z1.000000 I-313.195507 J-37.056968
G02 X359.053006 Y148.927260 Z1.000000 I104.976880 J21.612887
G02 X359.600000 Y154.000000 Z1.000000 I14.504281 J1.001864
G01 X361.100000 Y159.100000 Z1.000000
G01 X357.100000 Y163.600000 Z1.000000
G02 X353.446609 Y168.071397 Z1.000000 I26.389722 J25.290151
G02 X353.000000 Y169.500000 Z1.000000 I2.061588 J1.428603
G03 X351.963696 Y169.913801 Z1.000000 I-0.600768 J0.000000
G03 X349.100000 Y165.400000 Z1.000000 I10.027399 J-9.527005
G01 X349.100000 Y165.400000 Z1.000000
G00 Z5.000000

(End cutting path id: path11666)


(Start cutting path id: path11664)
(Change tool to Default tool)

G00 Z5.000000
G00 X511.500000 Y172.000000

G01 Z1.000000 F100.0(Penetrate)
G03 X510.829846 Y169.983336 Z1.000000 I1.972339 J-1.775105 F400.000000
G03 X511.900000 Y167.700000 Z1.000000 I3.690886 J0.337396
G03 X514.042268 Y166.459824 Z1.000000 I3.715430 J3.947644
G03 X514.700000 Y166.800000 Z1.000000 I0.154066 J0.508064
G02 X515.377017 Y167.972683 Z1.000000 I5.255528 J-2.252369
G02 X516.700000 Y169.500000 Z1.000000 I11.313909 J-8.463608
G03 X517.460156 Y171.084871 Z1.000000 I-1.873166 J1.873166
G03 X517.000000 Y172.500000 Z1.000000 I-1.800026 J0.197066
G03 X514.525810 Y173.524245 Z1.000000 I-2.235837 J-1.900462
G03 X511.500000 Y172.000000 Z1.000000 I0.366094 J-4.492161
G01 X511.500000 Y172.000000 Z1.000000
G00 Z5.000000

(End cutting path id: path11664)


(Start cutting path id: path11662)
(Change tool to Default tool)

G00 Z5.000000
G00 X529.700000 Y174.700000

G01 Z1.000000 F100.0(Penetrate)
G03 X528.368259 Y173.364916 Z1.000000 I2.650218 J-3.975327 F400.000000
G03 X527.100000 Y170.700000 Z1.000000 I8.732663 J-5.790204
G03 X526.444482 Y168.779555 Z1.000000 I36.926222 J-13.676379
G03 X526.512500 Y168.525000 Z1.000000 I0.235106 J-0.073544
G03 X526.760640 Y168.496948 Z1.000000 I0.143192 J0.155124
G03 X528.400000 Y169.500000 Z1.000000 I-16.583074 J28.944118
G02 X530.618183 Y170.171612 Z1.000000 I2.218183 J-3.327275
G02 X532.000000 Y169.500000 Z1.000000 I0.000000 J-1.757325
G03 X533.298015 Y168.548784 Z1.000000 I2.780387 J2.432838
G03 X534.100000 Y168.600000 Z1.000000 I0.351398 J0.802195
G03 X535.118487 Y170.787888 Z1.000000 I-1.108102 J1.846837
G03 X533.200000 Y174.300000 Z1.000000 I-5.908771 J-0.947617
G03 X531.353579 Y175.161230 Z1.000000 I-2.246997 J-2.407497
G03 X529.700000 Y174.700000 Z1.000000 I-0.272007 J-2.219595
G01 X529.700000 Y174.700000 Z1.000000
G00 Z5.000000

(End cutting path id: path11662)


(Start cutting path id: path11660)
(Change tool to Default tool)

G00 Z5.000000
G00 X367.200000 Y176.300000

G01 Z1.000000 F100.0(Penetrate)
G03 X366.436206 Y174.428730 Z1.000000 I11.886091 J-5.943045 F400.000000
G03 X365.000000 Y169.400000 Z1.000000 I74.952731 J-24.125964
G03 X364.482577 Y164.193956 Z1.000000 I18.122270 J-4.429888
G03 X366.400000 Y137.900000 Z1.000000 I422.499366 J17.592856
G03 X372.428011 Y83.595260 Z1.000000 I2614.514688 J262.733094
G03 X373.100000 Y83.000000 Z1.000000 I0.671989 J0.081674
G03 X373.864824 Y83.601963 Z1.000000 I0.000000 J0.786854
G03 X375.400000 Y92.300000 Z1.000000 I-68.731767 J16.615439
G03 X375.605541 Y99.340375 Z1.000000 I-38.799345 J4.655921
G03 X372.937500 Y137.212500 Z1.000000 I-2042.617710 J-124.869686
G03 X369.472684 Y175.857378 Z1.000000 I-1971.338795 J-157.268216
G03 X368.600000 Y177.700000 Z1.000000 I-3.015517 J-0.300212
G03 X368.235105 Y177.736132 Z1.000000 I-0.197258 J-0.131505
G03 X367.200000 Y176.300000 Z1.000000 I3.907369 J-3.907369
G01 X367.200000 Y176.300000 Z1.000000
G00 Z5.000000

(End cutting path id: path11660)


(Start cutting path id: path11658)
(Change tool to Default tool)

G00 Z5.000000
G00 X408.000000 Y180.000000

G01 Z1.000000 F100.0(Penetrate)
G03 X406.435165 Y176.222153 Z1.000000 I3.777847 J-3.777847 F400.000000
G03 X408.000000 Y171.900000 Z1.000000 I6.751419 J0.000000
G03 X409.585001 Y170.725816 Z1.000000 I2.975851 J2.360158
G03 X409.975000 Y170.937500 Z1.000000 I0.106103 J0.269622
G03 X409.902620 Y171.865821 Z1.000000 I-1.655667 J0.337891
G03 X408.500000 Y174.400000 Z1.000000 I-9.166977 J-3.418495
G02 X408.037666 Y177.162639 Z1.000000 I2.437160 J1.827870
G02 X410.300000 Y180.000000 Z1.000000 I4.886023 J-1.575206
G03 X412.013513 Y181.575948 Z1.000000 I-3.256079 J5.259820
G03 X411.800000 Y182.000000 Z1.000000 I-0.213513 J0.158273
G03 X410.157679 Y181.592609 Z1.000000 I0.000000 J-3.514050
G03 X408.000000 Y180.000000 Z1.000000 I4.206115 J-7.956404
G01 X408.000000 Y180.000000 Z1.000000
G00 Z5.000000

(End cutting path id: path11658)


(Start cutting path id: path11656)
(Change tool to Default tool)

G00 Z5.000000
G00 X276.800000 Y181.400000

G01 Z1.000000 F100.0(Penetrate)
G03 X276.251596 Y180.555572 Z1.000000 I0.999551 J-1.249439 F400.000000
G03 X276.000000 Y178.600000 Z1.000000 I7.474217 J-1.955572
G03 X276.430232 Y177.672192 Z1.000000 I1.215540 J-0.000000
G03 X277.100000 Y177.700000 Z1.000000 I0.319775 J0.377801
G03 X277.790155 Y178.938658 Z1.000000 I-1.832796 J1.832796
G03 X277.800000 Y180.500000 Z1.000000 I-3.406382 J0.802180
G03 X277.312894 Y181.419974 Z1.000000 I-1.407718 J-0.156413
G03 X276.800000 Y181.400000 Z1.000000 I-0.245651 J-0.287217
G01 X276.800000 Y181.400000 Z1.000000
G00 Z5.000000

(End cutting path id: path11656)


(Start cutting path id: path11654)
(Change tool to Default tool)

G00 Z5.000000
G00 X141.200000 Y180.900000

G01 Z1.000000 F100.0(Penetrate)
G03 X140.653835 Y178.835037 Z1.000000 I2.746835 J-1.831224 F400.000000
G03 X141.400000 Y177.200000 Z1.000000 I2.563135 J0.181933
G03 X142.979148 Y176.648111 Z1.000000 I1.314922 J1.227261
G03 X145.000000 Y177.700000 Z1.000000 I-0.512675 J3.452073
G03 X145.952128 Y179.850532 Z1.000000 I-2.812492 J2.531243
G03 X145.400000 Y181.400000 Z1.000000 I-1.908583 J0.193013
G03 X143.190244 Y182.192190 Z1.000000 I-1.893296 J-1.803139
G03 X141.200000 Y180.900000 Z1.000000 I0.327102 J-2.682597
G01 X141.200000 Y180.900000 Z1.000000
G00 Z5.000000

(End cutting path id: path11654)


(Start cutting path id: path11652)
(Change tool to Default tool)

G00 Z5.000000
G00 X473.700000 Y183.000000

G01 Z1.000000 F100.0(Penetrate)
G03 X473.308120 Y181.507471 Z1.000000 I7.094592 J-2.660472 F400.000000
G03 X472.600000 Y175.900000 Z1.000000 I95.825127 J-14.949398
G03 X472.853693 Y170.366094 Z1.000000 I18.483876 J-1.925404
G03 X477.400000 Y151.600000 Z1.000000 I224.133603 J44.365254
G02 X481.295502 Y137.220498 Z1.000000 I-575.619789 J-163.656607
G02 X481.637500 Y133.900000 Z1.000000 I-10.853370 J-2.795715
G02 X480.248772 Y132.355048 Z1.000000 I-1.639222 J0.076839
G02 X476.500000 Y132.400000 Z1.000000 I-1.739602 J11.262822
G02 X469.944287 Y135.947875 Z1.000000 I2.399612 J12.264682
G02 X466.600000 Y142.700000 Z1.000000 I8.794214 J8.559987
G03 X461.734058 Y171.577698 Z1.000000 I-935.644633 J-142.808918
G03 X460.600000 Y175.500000 Z1.000000 I-20.301660 J-3.744739
G01 X459.400000 Y178.500000 Z1.000000
G01 X457.500000 Y173.700000 Z1.000000
G03 X456.487927 Y168.865023 Z1.000000 I14.702718 J-5.601035
G03 X456.900000 Y160.700000 Z1.000000 I41.252627 J-2.010967
G02 X457.721510 Y152.472908 Z1.000000 I-124.094245 J-16.545899
G02 X458.000000 Y144.100000 Z1.000000 I-125.728134 J-8.372908
G02 X456.878365 Y136.247980 Z1.000000 I-28.044907 J0.000000
G02 X454.600000 Y132.400000 Z1.000000 I-8.648686 J2.522340
G02 X450.886373 Y129.847488 Z1.000000 I-8.744332 J8.744332
G02 X446.900000 Y129.000000 Z1.000000 I-3.986373 J8.951714
G02 X439.201372 Y130.435112 Z1.000000 I0.000000 J21.367114
G02 X435.800000 Y133.200000 Z1.000000 I2.557076 J6.620354
G03 X435.790489 Y133.562119 Z1.000000 I-6.898620 J-0.000000
G02 X435.100000 Y149.500000 Z1.000000 I864.034260 J45.417134
G01 X434.500000 Y165.500000 Z1.000000
G01 X431.300000 Y159.000000 Z1.000000
G02 X427.320037 Y153.370409 Z1.000000 I-18.877130 J9.123946
G02 X421.800000 Y149.400000 Z1.000000 I-14.558449 J14.418085
G03 X411.322103 Y142.412132 Z1.000000 I21.620055 J-43.767428
G03 X406.900000 Y136.500000 Z1.000000 I11.585996 J-13.275858
G03 X405.476348 Y128.940801 Z1.000000 I14.613755 J-6.665923
G03 X407.500000 Y125.400000 Z1.000000 I4.553263 J0.253614
G03 X416.473562 Y123.396818 Z1.000000 I7.113898 J10.766981
G03 X426.600000 Y128.200000 Z1.000000 I-2.747897 J18.869585
G02 X428.035547 Y129.306740 Z1.000000 I7.737948 J-8.552469
G02 X428.650000 Y129.300000 Z1.000000 I0.302183 J-0.463133
G02 X429.140626 Y128.705577 Z1.000000 I-0.785480 J-1.148010
G02 X430.400000 Y125.600000 Z1.000000 I-63.916753 J-27.727669
G03 X435.833146 Y118.538825 Z1.000000 I14.520855 J5.552092
G03 X443.700000 Y116.000000 Z1.000000 I7.866854 J10.918783
G03 X454.291271 Y119.682641 Z1.000000 I-0.000000 J17.071561
G03 X460.500000 Y129.300000 Z1.000000 I-11.013733 J13.922975
G02 X461.474788 Y131.610542 Z1.000000 I7.917387 J-1.979347
G02 X462.037500 Y131.875000 Z1.000000 I0.484074 J-0.299114
G02 X462.593146 Y131.478123 Z1.000000 I-0.101863 J-0.730017
G02 X463.500000 Y128.900000 Z1.000000 I-9.350342 J-4.737533
G03 X470.359587 Y119.646828 Z1.000000 I13.981769 J3.195833
G03 X480.900000 Y119.000000 Z1.000000 I5.925661 J10.357581
G03 X484.927246 Y122.936982 Z1.000000 I-2.865789 J6.959774
G03 X486.887500 Y133.112500 Z1.000000 I-21.459589 J9.410640
G03 X485.468523 Y144.825447 Z1.000000 I-67.156208 J-2.193282
G03 X479.300000 Y169.500000 Z1.000000 I-340.895148 J-72.113869
G03 X474.532439 Y183.041802 Z1.000000 I-120.463834 J-34.800663
G03 X473.700000 Y183.000000 Z1.000000 I-0.408693 J-0.170768
G01 X473.700000 Y183.000000 Z1.000000
G00 Z5.000000

(End cutting path id: path11652)


(Start cutting path id: path11652)
(Change tool to Default tool)

G00 Z5.000000
G00 X428.800000 Y141.300000

G01 Z1.000000 F100.0(Penetrate)
G02 X427.554107 Y138.338666 Z1.000000 I-5.241603 J0.462494 F400.000000
G02 X425.000000 Y136.800000 Z1.000000 I-3.597651 J3.082741
G02 X416.379026 Y136.285333 Z1.000000 I-5.975837 J27.638248
G02 X415.000000 Y137.800000 Z1.000000 I0.142312 J1.514667
G02 X415.318919 Y138.364497 Z1.000000 I0.659049 J-0.000000
G02 X421.050000 Y141.612500 Z1.000000 I63.716484 J-105.747116
G02 X426.891863 Y144.538754 Z1.000000 I62.525026 J-117.528244
G02 X428.300000 Y144.900000 Z1.000000 I1.649839 J-3.505990
G02 X428.760551 Y144.567864 Z1.000000 I0.075999 J-0.379993
G02 X428.800000 Y141.300000 Z1.000000 I-14.541992 J-1.809719
G01 X428.800000 Y141.300000 Z1.000000
G00 Z5.000000

(End cutting path id: path11652)


(Start cutting path id: path11650)
(Change tool to Default tool)

G00 Z5.000000
G00 X310.000000 Y182.100000

G01 Z1.000000 F100.0(Penetrate)
G03 X309.261258 Y180.052793 Z1.000000 I12.347828 J-5.612649 F400.000000
G03 X309.000000 Y178.100000 Z1.000000 I7.167516 J-1.952793
G03 X309.809176 Y176.824965 Z1.000000 I1.409136 J0.000000
G03 X313.500000 Y176.000000 Z1.000000 I3.690824 J7.843730
G02 X317.522402 Y175.586918 Z1.000000 I-0.000000 J-19.790712
G02 X318.000000 Y175.000000 Z1.000000 I-0.121832 J-0.586918
G02 X317.640134 Y174.280267 Z1.000000 I-0.899666 J-0.000000
G02 X312.800000 Y171.100000 Z1.000000 I-27.961202 J37.281603
G03 X306.517425 Y167.392905 Z1.000000 I109.984948 J-193.573509
G03 X305.837500 Y166.675000 Z1.000000 I0.992728 J-1.621137
G03 X306.080758 Y166.248732 Z1.000000 I0.254391 J-0.137371
G03 X310.200000 Y166.300000 Z1.000000 I1.557051 J40.405771
G03 X317.201434 Y168.840855 Z1.000000 I-0.766390 J13.028623
G03 X321.400000 Y174.600000 Z1.000000 I-7.099977 J9.586071
G03 X321.657135 Y180.141275 Z1.000000 I-9.263056 J3.206442
G03 X319.400000 Y182.900000 Z1.000000 I-4.019226 J-0.985717
G03 X312.936314 Y183.995847 Z1.000000 I-5.440957 J-12.482195
G03 X310.000000 Y182.100000 Z1.000000 I0.274725 J-3.647323
G01 X310.000000 Y182.100000 Z1.000000
G00 Z5.000000

(End cutting path id: path11650)


(Start cutting path id: path11648)
(Change tool to Default tool)

G00 Z5.000000
G00 X155.100000 Y182.100000

G01 Z1.000000 F100.0(Penetrate)
G03 X154.696898 Y180.043066 Z1.000000 I3.118243 J-1.679054 F400.000000
G03 X155.400000 Y179.600000 Z1.000000 I0.526774 J0.056529
G02 X156.653386 Y179.684007 Z1.000000 I0.766507 J-2.044020
G02 X157.500000 Y179.100000 Z1.000000 I-0.310041 J-1.355110
G03 X158.933061 Y178.779782 Z1.000000 I0.862427 J0.492815
G03 X159.800000 Y180.700000 Z1.000000 I-1.187507 J1.691946
G03 X157.696275 Y183.189170 Z1.000000 I-2.932722 J-0.345026
G03 X155.100000 Y182.100000 Z1.000000 I-0.627135 J-2.144066
G01 X155.100000 Y182.100000 Z1.000000
G00 Z5.000000

(End cutting path id: path11648)


(Start cutting path id: path11646)
(Change tool to Default tool)

G00 Z5.000000
G00 X514.600000 Y184.400000

G01 Z1.000000 F100.0(Penetrate)
G03 X513.331617 Y181.916998 Z1.000000 I2.837662 J-3.015016 F400.000000
G03 X513.600000 Y177.300000 Z1.000000 I12.340578 J-1.598950
G03 X514.449195 Y175.426974 Z1.000000 I6.733695 J1.923913
G03 X514.987500 Y175.087500 Z1.000000 I0.634299 J0.409278
G03 X515.512073 Y175.316022 Z1.000000 I0.070956 J0.553459
G03 X516.300000 Y177.000000 Z1.000000 I-4.131247 J2.959320
G02 X518.732573 Y179.064880 Z1.000000 I2.656385 J-0.664096
G02 X521.400000 Y177.400000 Z1.000000 I0.215238 J-2.624432
G02 X521.732360 Y175.740722 Z1.000000 I-6.486744 J-2.162248
G02 X522.100000 Y168.200000 Z1.000000 I-151.142417 J-11.148104
G03 X522.588107 Y162.954709 Z1.000000 I28.427473 J0.000000
G03 X523.100000 Y162.900000 Z1.000000 I0.264170 J0.049595
G03 X524.718060 Y171.043481 Z1.000000 I-23.433575 J8.888597
G03 X523.500000 Y180.200000 Z1.000000 I-28.624957 J0.851399
G03 X519.157959 Y185.179005 Z1.000000 I-7.949687 J-2.549900
G03 X514.600000 Y184.400000 Z1.000000 I-1.728891 J-3.608073
G01 X514.600000 Y184.400000 Z1.000000
G00 Z5.000000

(End cutting path id: path11646)


(Start cutting path id: path11644)
(Change tool to Default tool)

G00 Z5.000000
G00 X234.400000 Y184.300000

G01 Z1.000000 F100.0(Penetrate)
G03 X232.326925 Y175.914355 Z1.000000 I24.203766 J-10.432658 F400.000000
G03 X233.400000 Y171.800000 Z1.000000 I6.486628 J-0.505320
G02 X235.218325 Y167.640960 Z1.000000 I-11.576701 J-7.538317
G02 X240.250000 Y145.775000 Z1.000000 I-519.398581 J-131.033074
G02 X244.321214 Y124.129809 Z1.000000 I-558.189650 J-116.194580
G02 X245.000000 Y116.000000 Z1.000000 I-48.345880 J-8.129809
G02 X243.030076 Y110.494485 Z1.000000 I-8.678327 J0.000000
G02 X237.500000 Y106.900000 Z1.000000 I-8.430239 J6.918607
G02 X232.333449 Y107.845619 Z1.000000 I-1.614479 J5.765997
G02 X224.500000 Y116.500000 Z1.000000 I17.419924 J23.639900
G03 X220.262532 Y123.063930 Z1.000000 I-69.793702 J-40.406880
G03 X219.400000 Y123.700000 Z1.000000 I-1.411719 J-1.011492
G03 X217.532251 Y122.737221 Z1.000000 I-0.464187 J-1.392562
G03 X216.000000 Y112.500000 Z1.000000 I33.432158 J-10.237221
G03 X216.441215 Y110.044777 Z1.000000 I7.051888 J0.000000
G03 X219.500000 Y103.000000 Z1.000000 I66.674694 J24.763178
G02 X222.578651 Y96.049644 Z1.000000 I-72.864544 J-36.432272
G02 X223.000000 Y93.800000 Z1.000000 I-5.794913 J-2.249644
G02 X221.382742 Y87.927140 Z1.000000 I-11.471888 J0.000000
G02 X213.500000 Y77.800000 Z1.000000 I-44.573330 J26.563449
G02 X198.359260 Y67.437638 Z1.000000 I-34.394558 J34.012396
G02 X181.800000 Y64.000000 Z1.000000 I-16.559260 J38.164544
G03 X176.861748 Y63.190155 Z1.000000 I-0.000000 J-15.461086
G03 X176.812500 Y62.437500 Z1.000000 I0.130258 J-0.386462
G03 X179.859427 Y61.353329 Z1.000000 I6.261349 J12.773152
G03 X192.000000 Y59.000000 Z1.000000 I38.320922 J165.200907
G03 X202.309101 Y58.081830 Z1.000000 I12.458024 J81.543431
G03 X207.737500 Y58.775000 Z1.000000 I0.467532 J17.940834
G03 X212.402876 Y61.235884 Z1.000000 I-3.575604 J12.431460
G03 X217.100000 Y66.200000 Z1.000000 I-17.842184 J21.586855
G03 X223.997899 Y77.821204 Z1.000000 I-56.701445 J41.513558
G03 X228.200000 Y89.900000 Z1.000000 I-55.440153 J26.057449
G02 X230.030849 Y93.848363 Z1.000000 I9.933330 J-2.207407
G02 X231.600000 Y94.400000 Z1.000000 I1.202790 J-0.913806
G03 X237.074949 Y94.731587 Z1.000000 I2.235936 J8.446870
G03 X243.700000 Y99.300000 Z1.000000 I-6.716599 J16.828308
G03 X248.231650 Y107.036660 Z1.000000 I-14.716561 J13.815547
G03 X250.100000 Y119.600000 Z1.000000 I-38.423375 J12.134705
G03 X249.462271 Y128.948187 Z1.000000 I-68.834330 J-0.000000
G03 X245.800000 Y151.000000 Z1.000000 I-390.707432 J-53.557009
G02 X243.538049 Y166.462400 Z1.000000 I160.495879 J31.375134
G02 X243.900000 Y170.800000 Z1.000000 I12.051485 J1.178266
G03 X243.998240 Y176.737822 Z1.000000 I-12.084316 J3.169657
G03 X241.500000 Y181.400000 Z1.000000 I-9.721814 J-2.209026
G02 X238.401376 Y185.312244 Z1.000000 I28.237714 J25.548408
G02 X238.000000 Y186.600000 Z1.000000 I1.865098 J1.287756
G03 X236.851956 Y187.232795 Z1.000000 I-0.748418 J0.000000
G03 X234.400000 Y184.300000 Z1.000000 I3.333297 J-5.278167
G01 X234.400000 Y184.300000 Z1.000000
G00 Z5.000000

(End cutting path id: path11644)


(Start cutting path id: path11642)
(Change tool to Default tool)

G00 Z5.000000
G00 X423.700000 Y188.200000

G01 Z1.000000 F100.0(Penetrate)
G03 X422.434911 Y184.766012 Z1.000000 I3.556723 J-3.260330 F400.000000
G03 X423.900000 Y181.600000 Z1.000000 I4.503899 J0.162208
G02 X425.254761 Y179.655195 Z1.000000 I-3.580286 J-3.938314
G02 X425.300000 Y178.200000 Z1.000000 I-1.953274 J-0.789024
G03 X425.424447 Y177.766078 Z1.000000 I0.453675 J-0.104694
G03 X425.700000 Y177.800000 Z1.000000 I0.124534 J0.124534
G02 X426.825701 Y178.572893 Z1.000000 I1.625222 J-1.160873
G02 X428.200000 Y178.500000 Z1.000000 I0.571695 J-2.213170
G03 X430.178985 Y179.184933 Z1.000000 I0.580565 J1.523984
G03 X430.000000 Y181.500000 Z1.000000 I-1.719224 J1.031534
G02 X429.236878 Y183.010190 Z1.000000 I3.873974 J2.905480
G02 X429.000000 Y185.200000 Z1.000000 I5.747672 J1.729460
G03 X429.154661 Y187.537063 Z1.000000 I-109.219814 J8.401524
G03 X429.100000 Y188.800000 Z1.000000 I-6.408074 J0.355307
G03 X427.450293 Y190.142770 Z1.000000 I-1.507675 J-0.167519
G03 X423.700000 Y188.200000 Z1.000000 I0.527530 J-5.609476
G01 X423.700000 Y188.200000 Z1.000000
G00 Z5.000000

(End cutting path id: path11642)


(Start cutting path id: path11642)
(Change tool to Default tool)

G00 Z5.000000
G00 X427.500000 Y186.000000

G01 Z1.000000 F100.0(Penetrate)
G02 X427.787214 Y185.098989 Z1.000000 I-1.764674 J-1.058805 F400.000000
G02 X427.500000 Y184.000000 Z1.000000 I-1.735502 J-0.133463
G02 X425.450429 Y183.365962 Z1.000000 I-1.386876 J0.853462
G02 X424.000000 Y185.600000 Z1.000000 I0.995285 J2.234038
G02 X425.316027 Y187.076255 Z1.000000 I1.486009 J0.000000
G02 X427.500000 Y186.000000 Z1.000000 I0.257049 J-2.232410
G01 X427.500000 Y186.000000 Z1.000000
G00 Z5.000000

(End cutting path id: path11642)


(Start cutting path id: path11640)
(Change tool to Default tool)

G00 Z5.000000
G00 X331.000000 Y190.300000

G01 Z1.000000 F100.0(Penetrate)
G03 X332.993099 Y186.457835 Z1.000000 I4.699887 J0.000000 F400.000000
G03 X336.500000 Y186.400000 Z1.000000 I1.795970 J2.549299
G03 X338.483122 Y188.366743 Z1.000000 I-3.624070 J5.637442
G03 X339.000000 Y190.100000 Z1.000000 I-2.647644 J1.733257
G03 X338.369807 Y191.048396 Z1.000000 I-1.028731 J0.000000
G03 X336.900000 Y191.000000 Z1.000000 I-0.682243 J-1.623524
G02 X334.932796 Y190.629411 Z1.000000 I-1.531372 J2.722438
G02 X332.900000 Y191.600000 Z1.000000 I0.522552 J3.708462
G03 X331.612432 Y192.629714 Z1.000000 I-10.524022 J-11.839525
G03 X331.275000 Y192.637500 Z1.000000 I-0.174413 J-0.243012
G03 X331.083610 Y192.317222 Z1.000000 I0.230978 J-0.355351
G03 X331.000000 Y190.300000 Z1.000000 I24.292600 J-2.017222
G01 X331.000000 Y190.300000 Z1.000000
G00 Z5.000000

(End cutting path id: path11640)


(Start cutting path id: path11638)
(Change tool to Default tool)

G00 Z5.000000
G00 X144.200000 Y191.400000

G01 Z1.000000 F100.0(Penetrate)
G03 X142.302550 Y188.494328 Z1.000000 I2.641696 J-3.797438 F400.000000
G03 X143.000000 Y185.000000 Z1.000000 I4.587147 J-0.901197
G03 X143.967789 Y184.588694 Z1.000000 I0.773627 J0.476078
G03 X145.400000 Y185.500000 Z1.000000 I-0.527254 J2.409720
G02 X146.917017 Y186.430227 Z1.000000 I1.840256 J-1.299004
G02 X148.500000 Y186.000000 Z1.000000 I0.295702 J-2.039327
G02 X149.495598 Y184.360763 Z1.000000 I-1.893136 J-2.271764
G02 X150.000000 Y179.100000 Z1.000000 I-21.567239 J-4.722430
G03 X149.937248 Y173.875840 Z1.000000 I161.690175 J-4.554653
G03 X150.050000 Y172.725000 Z1.000000 I6.191158 J0.025626
G03 X150.331278 Y172.664296 Z1.000000 I0.153606 J0.029730
G03 X151.000000 Y174.000000 Z1.000000 I-4.021832 J2.848786
G03 X152.062591 Y181.040442 Z1.000000 I-20.763888 J6.734234
G03 X150.900000 Y187.900000 Z1.000000 I-22.696507 J-0.318414
G03 X147.668567 Y191.632153 Z1.000000 I-6.418450 J-2.292303
G03 X144.200000 Y191.400000 Z1.000000 I-1.546403 J-2.923183
G01 X144.200000 Y191.400000 Z1.000000
G00 Z5.000000

(End cutting path id: path11638)


(Start cutting path id: path11636)
(Change tool to Default tool)

G00 Z5.000000
G00 X462.100000 Y196.000000

G01 Z1.000000 F100.0(Penetrate)
G03 X461.141617 Y194.835384 Z1.000000 I1.256807 J-2.010891 F400.000000
G03 X460.600000 Y191.900000 Z1.000000 I7.683590 J-2.935384
G02 X460.002811 Y189.072040 Z1.000000 I-7.933673 J0.198342
G02 X459.300000 Y188.350000 Z1.000000 I-1.253532 J0.517082
G02 X458.530745 Y188.494297 Z1.000000 I-0.279990 J0.629977
G02 X457.400000 Y190.500000 Z1.000000 I3.081289 J3.058711
G03 X456.400027 Y192.401108 Z1.000000 I-4.279512 J-1.037458
G03 X455.650000 Y192.600000 Z1.000000 I-0.526482 J-0.471743
G03 X454.903616 Y191.984413 Z1.000000 I0.425326 J-1.275977
G03 X453.900000 Y189.300000 Z1.000000 I8.062516 J-4.544133
G02 X452.481226 Y185.239574 Z1.000000 I-14.562721 J2.810350
G02 X451.537500 Y184.362500 Z1.000000 I-1.710331 J0.894046
G02 X450.760652 Y184.629032 Z1.000000 I-0.242179 J0.559518
G02 X450.000000 Y187.600000 Z1.000000 I5.421702 J2.970968
G03 X449.396364 Y189.521164 Z1.000000 I-3.359017 J-0.000000
G03 X448.750000 Y189.737500 Z1.000000 I-0.468782 J-0.326854
G03 X448.009271 Y189.138667 Z1.000000 I0.415804 J-1.271871
G03 X447.200000 Y186.700000 Z1.000000 I5.412399 J-3.149715
G03 X449.689121 Y181.368780 Z1.000000 I5.525482 J-0.666869
G03 X454.500000 Y182.000000 Z1.000000 I2.036402 J3.128250
G02 X456.559124 Y183.418723 Z1.000000 I4.121099 J-3.777674
G02 X459.600000 Y184.000000 Z1.000000 I3.040876 J-7.663331
G03 X462.522970 Y185.862019 Z1.000000 I0.000000 J3.225227
G03 X463.800000 Y192.800000 Z1.000000 I-12.704002 J5.924863
G03 X462.944658 Y195.807415 Z1.000000 I-7.262310 J-0.440140
G03 X462.100000 Y196.000000 Z1.000000 I-0.506415 J-0.272499
G01 X462.100000 Y196.000000 Z1.000000
G00 Z5.000000

(End cutting path id: path11636)


(Start cutting path id: path11634)
(Change tool to Default tool)

G00 Z5.000000
G00 X267.000000 Y195.100000

G01 Z1.000000 F100.0(Penetrate)
G03 X266.418906 Y192.013112 Z1.000000 I4.838845 J-2.509031 F400.000000
G03 X267.500000 Y190.600000 Z1.000000 I1.701172 J0.181374
G03 X268.982944 Y190.663306 Z1.000000 I0.658491 J1.975474
G03 X271.100000 Y192.100000 Z1.000000 I-2.693629 J6.247379
G03 X272.241655 Y194.140277 Z1.000000 I-3.041382 J3.041382
G03 X271.900000 Y195.600000 Z1.000000 I-1.626273 J0.389208
G03 X269.383359 Y196.656828 Z1.000000 I-2.229075 J-1.783260
G03 X267.000000 Y195.100000 Z1.000000 I0.311880 J-3.080224
G01 X267.000000 Y195.100000 Z1.000000
G00 Z5.000000

(End cutting path id: path11634)


(Start cutting path id: path11632)
(Change tool to Default tool)

G00 Z5.000000
G00 X282.300000 Y197.800000

G01 Z1.000000 F100.0(Penetrate)
G03 X281.417289 Y196.365632 Z1.000000 I4.090280 J-3.505954 F400.000000
G03 X280.700000 Y194.200000 Z1.000000 I14.078101 J-5.864480
G03 X280.393965 Y192.629570 Z1.000000 I25.155796 J-5.717226
G03 X280.487500 Y192.425000 Z1.000000 I0.199436 J-0.032481
G03 X280.706333 Y192.435785 Z1.000000 I0.101550 J0.165018
G03 X282.000000 Y193.500000 Z1.000000 I-13.257208 J17.433950
G02 X283.739402 Y194.187842 Z1.000000 I1.739402 J-1.855362
G02 X285.400000 Y193.500000 Z1.000000 I0.000000 J-2.348440
G03 X286.804602 Y192.951798 Z1.000000 I1.327319 J1.327319
G03 X287.700000 Y193.600000 Z1.000000 I-0.041182 J0.999420
G03 X286.420404 Y198.281839 Z1.000000 I-3.837003 J1.467089
G03 X282.300000 Y197.800000 Z1.000000 I-1.820732 J-2.288724
G01 X282.300000 Y197.800000 Z1.000000
G00 Z5.000000

(End cutting path id: path11632)


(Start cutting path id: path11630)
(Change tool to Default tool)

G00 Z5.000000
G00 X490.200000 Y194.800000

G01 Z1.000000 F100.0(Penetrate)
G03 X489.241843 Y188.403248 Z1.000000 I20.873613 J-6.396752 F400.000000
G03 X490.200000 Y170.500000 Z1.000000 I167.741043 J-0.000000
G03 X497.136194 Y107.952483 Z1.000000 I6467.764150 J685.583000
G03 X497.500000 Y107.200000 Z1.000000 I1.262478 J0.146188
G03 X498.972712 Y107.700296 Z1.000000 I0.617187 J0.600945
G03 X499.850000 Y125.862500 Z1.000000 I-131.264208 J15.442735
G03 X498.926813 Y146.416688 Z1.000000 I-423.172756 J-8.708887
G03 X495.900000 Y181.500000 Z1.000000 I-1041.244540 J-72.161156
G03 X494.009342 Y200.517558 Z1.000000 I-2943.292667 J-283.008910
G02 X494.000000 Y200.700000 Z1.000000 I1.776778 J0.182442
G03 X493.859366 Y200.884366 Z1.000000 I-0.191165 J0.000000
G03 X493.000000 Y201.000000 Z1.000000 I-0.859366 J-3.135478
G03 X492.378059 Y200.601967 Z1.000000 I0.000000 J-0.684920
G03 X490.200000 Y194.800000 Z1.000000 I38.541768 J-17.778387
G01 X490.200000 Y194.800000 Z1.000000
G00 Z5.000000

(End cutting path id: path11630)


(Start cutting path id: path11628)
(Change tool to Default tool)

G00 Z5.000000
G00 X335.600000 Y203.400000

G01 Z1.000000 F100.0(Penetrate)
G03 X334.165359 Y200.853817 Z1.000000 I11.119622 J-7.942587 F400.000000
G03 X334.300000 Y200.400000 Z1.000000 I0.339808 J-0.146065
G03 X334.668655 Y200.364923 Z1.000000 I0.198594 J0.132396
G03 X336.400000 Y202.600000 Z1.000000 I-8.508405 J8.378928
G03 X337.834641 Y205.146183 Z1.000000 I-11.119622 J7.942587
G03 X337.700000 Y205.600000 Z1.000000 I-0.339808 J0.146065
G03 X337.331345 Y205.635077 Z1.000000 I-0.198594 J-0.132396
G03 X335.600000 Y203.400000 Z1.000000 I8.508405 J-8.378928
G01 X335.600000 Y203.400000 Z1.000000
G00 Z5.000000

(End cutting path id: path11628)


(Start cutting path id: path11626)
(Change tool to Default tool)

G00 Z5.000000
G00 X452.500000 Y210.000000

G01 Z1.000000 F100.0(Penetrate)
G03 X451.784409 Y207.092870 Z1.000000 I3.666055 J-2.444036 F400.000000
G03 X454.000000 Y196.000000 Z1.000000 I61.331284 J6.482066
G03 X454.940792 Y196.002743 Z1.000000 I0.470009 J0.134288
G03 X455.900000 Y203.000000 Z1.000000 I-25.042298 J6.997257
G03 X454.387166 Y209.898148 Z1.000000 I-15.370841 J0.243982
G03 X452.500000 Y210.000000 Z1.000000 I-0.971508 J-0.466487
G01 X452.500000 Y210.000000 Z1.000000
G00 Z5.000000

(End cutting path id: path11626)


(Start cutting path id: path11624)
(Change tool to Default tool)

G00 Z5.000000
G00 X254.500000 Y206.500000

G01 Z1.000000 F100.0(Penetrate)
G03 X253.319175 Y200.011581 Z1.000000 I35.427499 J-9.799096 F400.000000
G03 X253.400000 Y194.300000 Z1.000000 I27.311101 J-2.469882
G02 X254.069766 Y188.472398 Z1.000000 I-293.175096 J-36.646887
G02 X257.600000 Y154.100000 Z1.000000 I-7976.418905 J-836.589504
G03 X261.192984 Y119.705680 Z1.000000 I3894.057249 J389.405725
G03 X261.500000 Y119.200000 Z1.000000 I0.694578 J0.075662
G03 X263.559055 Y120.003355 Z1.000000 I0.853317 J0.853317
G03 X263.100000 Y156.500000 Z1.000000 I-337.890467 J14.001218
G03 X259.383904 Y204.128830 Z1.000000 I-2170.954086 J-145.422762
G03 X258.400000 Y210.800000 Z1.000000 I-58.349826 J-5.197642
G03 X257.507647 Y212.581280 Z1.000000 I-3.836163 J-0.807613
G03 X256.825000 Y212.587500 Z1.000000 I-0.344109 J-0.302622
G03 X256.087080 Y211.390281 Z1.000000 I2.791378 J-2.546520
G03 X254.500000 Y206.500000 Z1.000000 I46.777805 J-17.883832
G01 X254.500000 Y206.500000 Z1.000000
G00 Z5.000000

(End cutting path id: path11624)


(Start cutting path id: path11622)
(Change tool to Default tool)

G00 Z5.000000
G00 X230.600000 Y212.300000

G01 Z1.000000 F100.0(Penetrate)
G03 X230.224562 Y211.525146 Z1.000000 I1.801998 J-1.351499 F400.000000
G03 X230.000000 Y209.800000 Z1.000000 I6.514229 J-1.725146
G03 X231.703583 Y208.238372 Z1.000000 I1.567542 J0.000000
G03 X233.800000 Y210.100000 Z1.000000 I-0.203923 J2.340866
G03 X232.770679 Y212.513044 Z1.000000 I-2.364798 J0.417317
G03 X230.600000 Y212.300000 Z1.000000 I-0.955633 J-1.428090
G01 X230.600000 Y212.300000 Z1.000000
G00 Z5.000000

(End cutting path id: path11622)


(Start cutting path id: path11620)
(Change tool to Default tool)

G00 Z5.000000
G00 X240.700000 Y213.400000

G01 Z1.000000 F100.0(Penetrate)
G03 X240.495614 Y211.958884 Z1.000000 I0.940863 J-0.868489 F400.000000
G03 X242.100000 Y210.700000 Z1.000000 I2.132868 J1.066438
G03 X243.442382 Y210.897398 Z1.000000 I0.441980 J1.657425
G03 X243.800000 Y211.700000 Z1.000000 I-0.409007 J0.663216
G03 X242.374496 Y213.659393 Z1.000000 I-2.671343 J-0.445224
G03 X240.700000 Y213.400000 Z1.000000 I-0.660004 J-1.273885
G01 X240.700000 Y213.400000 Z1.000000
G00 Z5.000000

(End cutting path id: path11620)


(Footer)
M5
G00 X0.0000 Y0.0000
M2
(Using default footer. To add your own footer create file "footer" in the output dir.)
(end)
%